%
(Header)
(Generated by gcodetools from Inkscape.)
(Using default header. To add your own header create file "header" in the output dir.)
M3
G28
(Header end.)
G21 (All units in mm)

(Start cutting path id: path1509)
(Change tool to Default tool)

G00 Z9.000000
G00 X96.352689 Y154.863781

G01 Z5.000000 F100.0(Penetrate)
G03 X96.368324 Y154.825464 Z5.000000 I0.054768 J0.000000 F1200.000000
G03 X96.568291 Y154.643390 Z5.000000 I1.685949 J1.650782
G02 X96.664029 Y154.387267 Z5.000000 I-0.169414 J-0.209282
G02 X96.507351 Y154.298672 Z5.000000 I-0.114861 J0.020291
G03 X96.373899 Y154.304347 Z5.000000 I-0.075201 J-0.196456
G03 X96.115103 Y154.185631 Z5.000000 I0.264672 J-0.918414
G02 X95.614546 Y154.049640 Z5.000000 I-0.458936 J0.700031
G02 X95.104405 Y154.235961 Z5.000000 I0.045625 J0.916454
G03 X94.998620 Y154.272548 Z5.000000 I-0.108591 J-0.142750
G03 X94.808419 Y154.240561 Z5.000000 I-0.008323 J-0.531997
G03 X94.819128 Y154.131282 Z5.000000 I0.019380 J-0.053265
G03 X96.452528 Y153.986017 Z5.000000 I1.934598 J12.497320
G03 X97.388729 Y154.018642 Z5.000000 I0.189776 J8.003117
G03 X97.670831 Y154.100155 Z5.000000 I-0.073282 J0.782522
G02 X98.775361 Y154.348227 Z5.000000 I1.041971 J-2.056361
G02 X99.997591 Y154.037045 Z5.000000 I-0.077666 J-2.860916
G03 X100.397983 Y153.887844 Z5.000000 I0.847022 J1.661201
G01 X100.446957 Y153.926204 Z5.000000
G03 X100.411302 Y153.992403 Z5.000000 I-0.079282 J-0.000000
G03 X99.972622 Y154.238768 Z5.000000 I-1.951794 J-2.961641
G03 X99.481524 Y154.377264 Z5.000000 I-0.658931 J-1.396577
G03 X98.433972 Y154.407036 Z5.000000 I-0.708325 J-6.478666
G02 X97.380306 Y154.379206 Z5.000000 I-1.066157 J20.405574
G02 X97.314835 Y154.406281 Z5.000000 I-0.000057 J0.092561
G01 X97.310363 Y154.458545 Z5.000000
G02 X97.480400 Y154.639854 Z5.000000 I0.744982 J-0.528281
G03 X97.508625 Y154.816450 Z5.000000 I-0.084360 J0.104037
G03 X97.342694 Y154.853557 Z5.000000 I-0.101784 J-0.065599
G02 X97.143280 Y154.769555 Z5.000000 I-0.361194 J0.578744
G02 X97.055489 Y154.783437 Z5.000000 I-0.027305 J0.111858
G03 X96.484505 Y154.981285 Z5.000000 I-0.727793 J-1.177546
G03 X96.352670 Y154.863627 Z5.000000 I-0.013414 J-0.117658
G00 Z9.000000

(Change tool to Default tool)

G00 Z9.000000
G00 X110.982284 Y154.835767

G01 Z5.000000 F100.0(Penetrate)
G03 X110.955741 Y154.735045 Z5.000000 I0.151728 J-0.093843 F1200.000000
G03 X110.990484 Y154.611083 Z5.000000 I0.276600 J0.010673
G01 X110.978551 Y154.590651 Z5.000000
G02 X110.926534 Y154.611083 Z5.000000 I0.000000 J0.076429
G03 X110.525620 Y154.765599 Z5.000000 I-0.393785 J-0.424359
G03 X109.100777 Y154.588693 Z5.000000 I0.079659 J-6.468073
G02 X108.483552 Y154.449337 Z5.000000 I-5.763370 J24.090089
G02 X107.858612 Y154.324862 Z5.000000 I-5.221927 J24.586246
G01 X107.859941 Y154.250873 Z5.000000
G03 X108.427214 Y154.240072 Z5.000000 I0.325268 J2.181187
G02 X109.513206 Y154.298566 Z5.000000 I1.063010 J-9.625335
G02 X109.682767 Y154.237072 Z5.000000 I-0.000632 J-0.266260
G03 X109.786100 Y154.212736 Z5.000000 I0.076160 J0.091832
G03 X109.833357 Y154.272322 Z5.000000 I-0.013938 J0.059586
G02 X110.001058 Y154.505104 Z5.000000 I0.245410 J0.000000
G02 X110.497524 Y154.494113 Z5.000000 I0.232908 J-0.697693
G02 X110.545159 Y154.414908 Z5.000000 I-0.026907 J-0.070109
G02 X110.472744 Y154.291196 Z5.000000 I-0.179247 J0.021872
G01 X110.484186 Y154.248202 Z5.000000
G03 X110.707124 Y154.264626 Z5.000000 I0.067937 J0.599113
G03 X111.040154 Y154.447807 Z5.000000 I-0.203329 J0.763982
G03 X111.131535 Y154.656581 Z5.000000 I-0.192799 J0.208774
G03 X111.064362 Y154.841544 Z5.000000 I-0.288237 J-0.000000
G03 X110.981738 Y154.835633 Z5.000000 I-0.039178 J-0.032780
G00 Z9.000000

(Change tool to Default tool)

G00 Z9.000000
G00 X115.725130 Y154.690832

G01 Z5.000000 F100.0(Penetrate)
G02 X115.515741 Y154.424753 Z5.000000 I-0.273753 J0.000000 F1200.000000
G02 X114.982463 Y154.511185 Z5.000000 I-0.163856 J0.677378
G03 X114.778762 Y154.593941 Z5.000000 I-0.338932 J-0.542191
G01 X114.758694 Y154.559625 Z5.000000
G03 X114.960442 Y154.382328 Z5.000000 I0.814515 J0.723410
G03 X115.246412 Y154.227987 Z5.000000 I0.893335 J1.313114
G03 X115.528720 Y154.185161 Z5.000000 I0.227792 J0.549706
G03 X115.673518 Y154.267237 Z5.000000 I-0.018536 J0.201465
G02 X115.798031 Y154.391393 Z5.000000 I0.460247 J-0.337056
G01 X115.839785 Y154.388168 Z5.000000
G03 X115.893179 Y154.361830 Z5.000000 I0.065249 J0.064985
G03 X116.563483 Y154.294088 Z5.000000 I1.528570 J11.774960
G02 X117.227923 Y154.209448 Z5.000000 I-0.441692 J-6.117698
G02 X117.358670 Y154.148292 Z5.000000 I-0.051365 J-0.280156
G03 X117.488386 Y154.106157 Z5.000000 I0.117997 J0.142528
G03 X118.123106 Y154.196922 Z5.000000 I-0.258399 J4.071684
G02 X118.772980 Y154.330490 Z5.000000 I4.013178 J-17.878364
G02 X119.170346 Y154.392550 Z5.000000 I1.244114 J-6.662760
G03 X119.568161 Y154.452568 Z5.000000 I-0.999618 J7.974221
G03 X120.268818 Y154.586280 Z5.000000 I-4.493995 J25.451228
G02 X120.967936 Y154.729425 Z5.000000 I110.496245 J-537.882138
G02 X121.417219 Y154.820654 Z5.000000 I46.790556 J-229.282041
G01 X121.419996 Y154.870332 Z5.000000
G03 X121.097363 Y154.923507 Z5.000000 I-0.339905 J-1.056976
G03 X120.337537 Y154.890603 Z5.000000 I-0.100798 J-6.461831
G03 X120.071094 Y154.818352 Z5.000000 I0.086926 J-0.847973
G02 X119.825572 Y154.765060 Z5.000000 I-0.245522 J0.538919
G02 X119.696913 Y154.818352 Z5.000000 I-0.000000 J0.181952
G03 X119.293377 Y154.977302 Z5.000000 I-0.384534 J-0.384525
G03 X119.120420 Y154.798192 Z5.000000 I0.006262 J-0.179110
G02 X118.906893 Y154.545271 Z5.000000 I-0.256555 J0.000000
G02 X118.317436 Y154.661583 Z5.000000 I-0.141769 J0.833336
G02 X118.147196 Y154.797867 Z5.000000 I0.496003 J0.794055
G02 X118.121813 Y154.859706 Z5.000000 I0.062635 J0.061839
G03 X118.093691 Y154.907351 Z5.000000 I-0.054422 J0.000000
G03 X117.984500 Y154.935486 Z5.000000 I-0.109191 J-0.197815
G03 X117.889522 Y154.883831 Z5.000000 I-0.000000 J-0.113145
G03 X117.785876 Y154.628812 Z5.000000 I0.616506 J-0.399134
G02 X117.664179 Y154.407406 Z5.000000 I-0.412545 J0.082608
G02 X117.498779 Y154.354197 Z5.000000 I-0.137492 J0.143715
G02 X117.347707 Y154.445440 Z5.000000 I0.031633 J0.223063
G02 X117.295495 Y154.635912 Z5.000000 I0.228874 J0.165130
G03 X117.280554 Y154.737248 Z5.000000 I-0.217999 J0.019628
G01 X117.254485 Y154.737571 Z5.000000
G02 X117.176915 Y154.599008 Z5.000000 I-0.701106 J0.301495
G02 X117.050966 Y154.449473 Z5.000000 I-0.936142 J0.660680
G02 X116.652929 Y154.390750 Z5.000000 I-0.238540 J0.238524
G02 X116.497954 Y154.746166 Z5.000000 I0.148147 J0.276093
G03 X116.497449 Y154.897231 Z5.000000 I-0.285963 J0.074578
G03 X116.447574 Y154.935502 Z5.000000 I-0.049875 J-0.013364
G03 X116.375399 Y154.899746 Z5.000000 I-0.000000 J-0.090721
G03 X116.295491 Y154.735779 Z5.000000 I0.370004 J-0.281774
G02 X116.205919 Y154.584454 Z5.000000 I-0.308405 J0.080378
G02 X116.084188 Y154.536056 Z5.000000 I-0.121731 J0.128890
G02 X115.976731 Y154.587839 Z5.000000 I0.000000 J0.137386
G02 X115.925008 Y154.735779 Z5.000000 I0.185710 J0.147940
G03 X115.886862 Y154.897384 Z5.000000 I-0.361390 J-0.000000
G03 X115.825188 Y154.935502 Z5.000000 I-0.061674 J-0.030834
G03 X115.765496 Y154.895390 Z5.000000 I-0.000000 J-0.064470
G03 X115.725368 Y154.690842 Z5.000000 I0.501261 J-0.204548
G00 Z9.000000

(Change tool to Default tool)

G00 Z9.000000
G00 X136.697608 Y154.860629

G01 Z5.000000 F100.0(Penetrate)
G03 X136.832139 Y154.229167 Z5.000000 I1.673699 J0.026515 F1200.000000
G03 X138.222884 Y151.290608 Z5.000000 I39.278509 J16.791131
G02 X138.370691 Y150.987179 Z5.000000 I-5.618024 J-2.924374
G02 X138.631314 Y150.391861 Z5.000000 I-21.142691 J-9.610731
G03 X138.928087 Y149.848623 Z5.000000 I2.816609 J1.186042
G03 X139.063211 Y149.762334 Z5.000000 I0.169316 J0.116196
G03 X139.132773 Y149.778450 Z5.000000 I0.015401 J0.091713
G01 X139.132901 Y149.812244 Z5.000000
G02 X139.039893 Y149.906703 Z5.000000 I0.243966 J0.333238
G02 X138.899324 Y150.142181 Z5.000000 I1.430367 J1.013555
G01 X138.922932 Y150.168158 Z5.000000
G02 X139.030340 Y150.092271 Z5.000000 I-0.094319 J-0.247451
G02 X139.212137 Y149.772518 Z5.000000 I-0.749954 J-0.637947
G02 X139.234954 Y149.493101 Z5.000000 I-0.541255 J-0.184839
G03 X139.260630 Y149.207529 Z5.000000 I0.559690 J-0.093618
G03 X139.590261 Y148.504780 Z5.000000 I3.911134 J1.405872
G02 X139.933453 Y147.809113 Z5.000000 I-4.515847 J-2.660279
G02 X139.939973 Y147.639887 Z5.000000 I-0.231657 J-0.093664
G02 X139.657833 Y147.271565 Z5.000000 I-0.651184 J0.206594
G02 X138.593655 Y146.775589 Z5.000000 I-2.364275 J3.683191
G02 X135.772235 Y145.954539 Z5.000000 I-23.606790 J75.863068
G02 X133.700470 Y145.449235 Z5.000000 I-10.956209 J40.421084
G03 X133.149222 Y145.323550 Z5.000000 I5.778637 J-26.616577
G03 X131.603398 Y144.948140 Z5.000000 I50.035425 J-209.400810
G02 X130.853469 Y144.767429 Z5.000000 I-16.591255 J67.205392
G02 X130.105487 Y144.595831 Z5.000000 I-16.327631 J69.454754
G03 X129.358986 Y144.418733 Z5.000000 I6.358432 J-28.463828
G03 X128.707428 Y144.244815 Z5.000000 I5.565311 J-22.157062
G02 X128.055871 Y144.070923 Z5.000000 I-6.257751 J22.139585
G02 X126.959868 Y143.805727 Z5.000000 I-15.704290 J62.505389
G03 X125.464081 Y143.404363 Z5.000000 I5.217991 J-22.434122
G03 X125.412024 Y143.334081 Z5.000000 I0.021416 J-0.070282
G03 X125.438809 Y143.288071 Z5.000000 I0.052909 J0.000000
G03 X125.491364 Y143.289041 Z5.000000 I0.025459 J0.044839
G01 X125.539500 Y143.269469 Z5.000000
G02 X125.746010 Y142.271359 Z5.000000 I-12.046251 J-3.012805
G03 X126.454700 Y138.532033 Z5.000000 I76.991262 J12.654821
G03 X127.101920 Y135.961954 Z5.000000 I37.017761 J7.955613
G03 X128.408376 Y132.699167 Z5.000000 I17.052703 J4.935137
G03 X129.844392 Y130.694303 Z5.000000 I7.752632 J4.036231
G03 X130.642333 Y129.893740 Z5.000000 I19.874541 J19.011516
G03 X130.700102 Y129.870449 Z5.000000 I0.057769 J0.059996
G01 X130.711360 Y129.894424 Z5.000000
G03 X130.280487 Y130.376041 Z5.000000 I-6.705596 J-5.565548
G02 X128.494571 Y132.747111 Z5.000000 I8.821976 J8.502929
G02 X127.628882 Y134.963351 Z5.000000 I6.814055 J3.938844
G03 X127.518234 Y135.410007 Z5.000000 I-10.056187 J-2.254130
G03 X127.418777 Y135.737273 Z5.000000 I-5.525994 J-1.500625
G02 X127.310299 Y136.062086 Z5.000000 I66.867364 J22.512321
G02 X127.203780 Y136.386361 Z5.000000 I64.298696 J21.300634
G02 X126.418070 Y139.323393 Z5.000000 I27.129219 J8.831173
G02 X125.856353 Y142.767474 Z5.000000 I36.791727 J7.768447
G02 X126.018683 Y143.226058 Z5.000000 I0.549276 J0.063590
G02 X126.593525 Y143.489560 Z5.000000 I0.653692 J-0.667288
G02 X126.928146 Y143.435895 Z5.000000 I0.059354 J-0.699973
G02 X127.008548 Y143.313407 Z5.000000 I-0.051807 J-0.121639
G03 X127.024757 Y143.103804 Z5.000000 I1.258459 J-0.008108
G03 X127.164332 Y142.353052 Z5.000000 I16.377973 J2.656534
G02 X127.320479 Y141.603886 Z5.000000 I-286.724170 J-60.152265
G02 X127.526226 Y140.605488 Z5.000000 I-526.192766 J-108.956518
G03 X127.885735 Y139.007093 Z5.000000 I42.485485 J8.716152
G03 X128.461819 Y136.784714 Z5.000000 I82.525745 J20.206431
G03 X129.169808 Y134.587676 Z5.000000 I25.009276 J6.846570
G03 X129.635881 Y133.630308 Z5.000000 I5.163241 J1.921475
G03 X129.957339 Y133.119911 Z5.000000 I20.938501 J12.831026
G03 X130.776493 Y131.867663 Z5.000000 I126.982473 J82.171185
G02 X131.554520 Y130.604964 Z5.000000 I-19.261493 J-12.739247
G02 X131.602740 Y130.425077 Z5.000000 I-0.316460 J-0.181235
G03 X131.821898 Y129.687455 Z5.000000 I1.366960 J0.004775
G03 X132.219683 Y129.471002 Z5.000000 I0.397785 J0.257287
G01 X132.248405 Y129.505438 Z5.000000
G03 X132.181123 Y129.682911 Z5.000000 I-0.516008 J-0.094136
G02 X132.223894 Y129.842588 Z5.000000 I0.097952 J0.059329
G02 X132.416294 Y129.812230 Z5.000000 I0.076612 J-0.139321
G03 X133.116279 Y129.231579 Z5.000000 I2.692430 J2.533525
G03 X133.800364 Y128.926762 Z5.000000 I1.350505 J2.110830
G01 X133.817269 Y128.957270 Z5.000000
G03 X133.550714 Y129.155846 Z5.000000 I-1.100732 J-1.199355
G02 X132.491021 Y130.019943 Z5.000000 I2.410335 J4.037766
G02 X131.116189 Y131.817727 Z5.000000 I9.506243 J8.694359
G03 X130.408862 Y132.908691 Z5.000000 I-52.956131 J-33.559327
G03 X130.018622 Y133.472628 Z5.000000 I-14.471549 J-9.597222
G02 X129.651020 Y134.047563 Z5.000000 I4.939572 J3.563248
G02 X129.411966 Y134.549824 Z5.000000 I3.535823 J1.990917
G02 X129.259258 Y135.080636 Z5.000000 I2.702220 J1.064767
G01 X129.306651 Y135.113139 Z5.000000
G01 X129.350869 Y135.142524 Z5.000000
G03 X129.257311 Y135.426300 Z5.000000 I-0.913789 J-0.143956
G02 X129.138388 Y135.719692 Z5.000000 I1.477689 J0.769760
G02 X129.107515 Y135.928701 Z5.000000 I0.708832 J0.211488
G03 X129.075766 Y136.123942 Z5.000000 I-0.625678 J-0.001541
G03 X129.024875 Y136.178358 Z5.000000 I-0.084459 J-0.027983
G02 X128.495072 Y136.784053 Z5.000000 I0.335600 J0.828108
G02 X127.254840 Y143.065258 Z5.000000 I54.792206 J14.081836
G02 X127.372760 Y143.142511 Z5.000000 I0.077220 J0.010754
G02 X127.560915 Y142.877920 Z5.000000 I-0.215875 J-0.352708
G03 X128.279630 Y139.708915 Z5.000000 I191.485756 J41.762040
G03 X128.566611 Y138.608264 Z5.000000 I23.314492 J5.491224
G03 X129.709186 Y135.105706 Z5.000000 I48.521043 J13.890494
G03 X130.216608 Y134.113432 Z5.000000 I4.338437 J1.592678
G02 X130.488640 Y133.681175 Z5.000000 I-6.622635 J-4.469553
G02 X130.505011 Y133.620821 Z5.000000 I-0.103069 J-0.060354
G03 X130.521569 Y133.560591 Z5.000000 I0.117820 J-0.000000
G03 X130.882479 Y132.986205 Z5.000000 I11.940338 J7.102007
G02 X131.240884 Y132.406754 Z5.000000 I-8.908071 J-5.910439
G02 X131.386382 Y132.110621 Z5.000000 I-2.188910 J-1.259276
G03 X132.486485 Y130.499257 Z5.000000 I4.373633 J1.804737
G03 X133.514614 Y130.071667 Z5.000000 I1.065345 J1.111743
G01 X133.524454 Y130.093492 Z5.000000
G03 X132.615867 Y131.043809 Z5.000000 I-29.007027 J-26.823774
G02 X131.672422 Y132.179749 Z5.000000 I6.077136 J6.007065
G02 X130.647609 Y133.880654 Z5.000000 I12.693017 J8.806860
G03 X130.211434 Y134.640335 Z5.000000 I-8.962150 J-4.640611
G03 X130.072115 Y134.789592 Z5.000000 I-0.465463 J-0.294821
G02 X129.953837 Y134.944545 Z5.000000 I0.203646 J0.278064
G02 X129.813373 Y135.465850 Z5.000000 I2.474606 J0.946350
G03 X129.680478 Y136.003672 Z5.000000 I-3.371101 J-0.547666
G03 X129.465259 Y136.504300 Z5.000000 I-3.132234 J-1.049964
G02 X129.238522 Y136.998197 Z5.000000 I4.125016 J2.192694
G02 X129.206822 Y137.166575 Z5.000000 I0.431328 J0.168378
G03 X129.183267 Y137.339259 Z5.000000 I-0.644757 J0.000000
G03 X128.815366 Y138.574714 Z5.000000 I-33.960767 J-9.440528
G02 X128.451431 Y139.813965 Z5.000000 I27.942708 J8.879095
G02 X128.161678 Y140.997039 Z5.000000 I25.100363 J6.774482
G03 X127.885988 Y142.181956 Z5.000000 I-50.954486 J-11.230826
G03 X127.850709 Y142.266171 Z5.000000 I-0.284574 J-0.069717
G02 X127.818573 Y142.350819 Z5.000000 I0.203730 J0.125770
G02 X127.723786 Y142.994557 Z5.000000 I12.134399 J2.115567
G01 X127.645626 Y143.644145 Z5.000000
G01 X128.044772 Y143.803832 Z5.000000
G02 X128.449233 Y143.945592 Z5.000000 I1.828205 J-4.568266
G02 X128.850348 Y144.047282 Z5.000000 I1.323227 J-4.377494
G03 X129.254766 Y144.139178 Z5.000000 I-1.989652 J9.691964
G03 X131.158729 Y144.622689 Z5.000000 I-55.306003 J221.773570
G01 X133.060778 Y145.114402 Z5.000000
G01 X133.080708 Y144.507642 Z5.000000
G03 X133.350714 Y141.895125 Z5.000000 I18.726525 J0.615192
G03 X134.007518 Y139.207430 Z5.000000 I20.492820 J3.583821
G02 X134.189059 Y138.606149 Z5.000000 I-23.340546 J-7.375116
G02 X134.266357 Y138.308681 Z5.000000 I-5.645414 J-1.625753
G03 X134.329364 Y138.225931 Z5.000000 I0.123365 J0.028570
G01 X134.376593 Y138.248901 Z5.000000
G03 X134.380128 Y138.486691 Z5.000000 I-0.765266 J0.130298
G03 X134.271844 Y138.997855 Z5.000000 I-3.708001 J-0.518445
G02 X133.554756 Y142.048932 Z5.000000 I31.607408 J9.038427
G02 X133.398557 Y143.712687 Z5.000000 I9.187462 J1.701761
G03 X133.370386 Y144.297369 Z5.000000 I-6.543760 J-0.022268
G03 X133.309037 Y144.675342 Z5.000000 I-2.804695 J-0.261267
G02 X133.277870 Y145.027098 Z5.000000 I1.234263 J0.286620
G02 X133.331777 Y145.118324 Z5.000000 I0.114081 J-0.005872
G02 X133.890435 Y145.302055 Z5.000000 I0.662098 J-1.071990
G02 X137.302248 Y145.445268 Z5.000000 I3.484516 J-42.300956
G03 X139.976526 Y145.716620 Z5.000000 I-0.021158 J13.522218
G03 X140.784294 Y146.153285 Z5.000000 I-0.314874 J1.547931
G03 X141.145783 Y146.569772 Z5.000000 I-2.992407 J2.962372
G03 X141.243653 Y146.758435 Z5.000000 I-0.498144 J0.378133
G03 X141.280992 Y147.431273 Z5.000000 I-1.288939 J0.408985
G03 X140.979519 Y148.086185 Z5.000000 I-1.518243 J-0.302043
G02 X140.802383 Y148.355855 Z5.000000 I1.485884 J1.169034
G02 X139.720257 Y150.414953 Z5.000000 I86.061837 J46.542314
G03 X138.661353 Y152.488826 Z5.000000 I-7733.638492 J-3947.429905
G03 X138.456962 Y152.888395 Z5.000000 I-328.480520 J-167.775213
G03 X138.236476 Y153.276408 Z5.000000 I-4.549489 J-2.328566
G03 X138.123530 Y153.419756 Z5.000000 I-0.724319 J-0.454532
G02 X138.018943 Y153.561615 Z5.000000 I0.457210 J0.446567
G02 X137.994608 Y153.657523 Z5.000000 I0.176828 J0.095908
G03 X137.968039 Y153.754798 Z5.000000 I-0.191360 J0.000000
G03 X137.645093 Y154.249796 Z5.000000 I-5.679661 J-3.352676
G02 X137.320745 Y154.744468 Z5.000000 I5.620682 J4.039051
G02 X137.295564 Y154.835879 Z5.000000 I0.153325 J0.091411
G03 X137.260104 Y154.900148 Z5.000000 I-0.075972 J-0.000000
G03 X137.137589 Y154.935539 Z5.000000 I-0.122515 J-0.194362
G03 X137.086755 Y154.874896 Z5.000000 I0.000000 J-0.051627
G03 X137.204039 Y154.561060 Z5.000000 I0.910793 J0.161539
G03 X137.435199 Y154.191230 Z5.000000 I9.924845 J5.946313
G03 X137.545666 Y154.036792 Z5.000000 I1.832170 J1.193793
G02 X138.078051 Y153.217433 Z5.000000 I-4.374870 J-3.425244
G02 X140.085923 Y149.253457 Z5.000000 I-101.665802 J-53.987282
G03 X140.163309 Y149.093831 Z5.000000 I40.514048 J19.542450
G03 X140.309716 Y148.794103 Z5.000000 I150.492193 J73.324758
G02 X140.600473 Y147.871497 Z5.000000 I-2.908010 J-1.423572
G02 X140.595217 Y146.971244 Z5.000000 I-2.770938 J-0.433963
G02 X140.415484 Y146.302504 Z5.000000 I-3.586508 J0.605398
G02 X140.259283 Y146.072896 Z5.000000 I-0.548282 J0.205058
G02 X139.753999 Y145.807945 Z5.000000 I-0.770089 J0.854341
G02 X138.394084 Y145.631609 Z5.000000 I-1.529903 J6.466658
G02 X137.005929 Y145.708773 Z5.000000 I-0.219679 J8.572827
G02 X136.898767 Y145.837120 Z5.000000 I0.016923 J0.123039
G02 X136.996112 Y145.972935 Z5.000000 I0.151672 J-0.005917
G02 X138.444011 Y146.429590 Z5.000000 I4.492417 J-11.720204
G03 X139.239822 Y146.639030 Z5.000000 I-8.006099 J32.037449
G03 X139.417660 Y146.698825 Z5.000000 I-0.458576 J1.658225
G02 X139.551607 Y146.708202 Z5.000000 I0.081682 J-0.205417
G02 X139.592414 Y146.656275 Z5.000000 I-0.012635 J-0.051927
G02 X139.423730 Y146.394592 Z5.000000 I-0.287319 J-0.000000
G02 X138.362725 Y146.098856 Z5.000000 I-1.484298 J3.274040
G03 X137.945600 Y145.998353 Z5.000000 I0.213365 J-1.801403
G01 X137.944711 Y145.943973 Z5.000000
G03 X138.423719 Y145.869807 Z5.000000 I0.394518 J0.964088
G03 X139.214143 Y146.047156 Z5.000000 I-0.236236 J2.902963
G03 X139.890032 Y146.540092 Z5.000000 I-0.552711 J1.467690
G03 X140.232624 Y147.330771 Z5.000000 I-1.303978 J1.034558
G03 X140.238183 Y148.321149 Z5.000000 I-3.474954 J0.514710
G03 X140.087624 Y148.392187 Z5.000000 I-0.098382 J-0.013446
G02 X140.016496 Y148.386889 Z5.000000 I-0.040667 J0.065863
G02 X139.933441 Y148.458407 Z5.000000 I0.071483 J0.167000
G01 X139.937514 Y148.498894 Z5.000000
G01 X139.976371 Y148.504007 Z5.000000
G03 X140.060150 Y148.489472 Z5.000000 I0.059996 J0.097093
G01 X140.091761 Y148.528527 Z5.000000
G03 X140.004066 Y148.894950 Z5.000000 I-0.809378 J0.000000
G03 X137.776889 Y153.088069 Z5.000000 I-114.794326 J-58.285026
G02 X137.399344 Y153.792648 Z5.000000 I23.182228 J12.875519
G02 X137.118842 Y154.361349 Z5.000000 I15.130279 J7.816277
G03 X136.779225 Y154.891214 Z5.000000 I-2.187494 J-1.028302
G01 X136.697727 Y154.860650 Z5.000000
G00 Z9.000000

(Change tool to Default tool)

G00 Z9.000000
G00 X137.695040 Y154.875140

G01 Z5.000000 F100.0(Penetrate)
G03 X137.710436 Y154.819413 Z5.000000 I0.108549 J0.000000 F1200.000000
G03 X138.008703 Y154.350869 Z5.000000 I8.583458 J5.134864
G02 X138.297965 Y153.872653 Z5.000000 I-4.596340 J-3.106813
G02 X139.467177 Y151.640149 Z5.000000 I-99.420548 J-53.491177
G03 X140.623053 Y149.400427 Z5.000000 I217.834641 J111.002015
G03 X140.694760 Y149.291127 Z5.000000 I0.585860 J0.306185
G02 X141.166694 Y148.525567 Z5.000000 I-2.725584 J-2.208447
G02 X141.549971 Y147.396071 Z5.000000 I-5.627140 J-2.539259
G01 X141.690571 Y146.796903 Z5.000000
G01 X141.644691 Y147.462371 Z5.000000
G03 X141.443850 Y148.274829 Z5.000000 I-2.418942 J-0.166914
G03 X139.270957 Y152.838481 Z5.000000 I-80.913726 J-35.726354
G03 X138.128864 Y154.820541 Z5.000000 I-20.455718 J-10.466819
G03 X137.919738 Y154.934959 Z5.000000 I-0.209878 J-0.135280
G03 X137.721282 Y154.909260 Z5.000000 I-0.001862 J-0.764745
G01 X137.695051 Y154.875139 Z5.000000
G00 Z9.000000

(Change tool to Default tool)

G00 Z9.000000
G00 X134.898948 Y154.367843

G01 Z5.000000 F100.0(Penetrate)
G03 X134.651070 Y154.318365 Z5.000000 I0.601350 J-3.658350 F1200.000000
G03 X133.850409 Y154.121187 Z5.000000 I9.122780 J-38.768101
G02 X133.049303 Y153.935706 Z5.000000 I-4.184433 J16.250142
G02 X132.874566 Y153.920170 Z5.000000 I-0.155012 J0.753020
G03 X132.773639 Y153.881214 Z5.000000 I-0.003678 J-0.140690
G03 X132.765274 Y153.815620 Z5.000000 I0.036284 J-0.037958
G01 X132.765217 Y153.773885 Z5.000000
G01 X132.734994 Y153.766790 Z5.000000
G03 X132.631349 Y153.788919 Z5.000000 I-0.082789 J-0.133975
G03 X132.060131 Y153.676620 Z5.000000 I0.629187 J-4.709357
G02 X131.481101 Y153.555282 Z5.000000 I-1.528713 J5.852818
G02 X131.268731 Y153.550895 Z5.000000 I-0.122095 J0.768061
G03 X130.597217 Y153.516569 Z5.000000 I-0.233873 J-2.010324
G03 X129.781103 Y153.221254 Z5.000000 I0.728109 J-3.287492
G03 X129.639322 Y153.110936 Z5.000000 I0.225054 J-0.435506
G03 X129.606348 Y153.024030 Z5.000000 I0.098036 J-0.086906
G03 X129.645866 Y152.974587 Z5.000000 I0.050690 J0.000000
G03 X129.781103 Y152.984570 Z5.000000 I0.051245 J0.226790
G02 X129.958343 Y153.043313 Z5.000000 I0.689154 J-1.782557
G02 X130.208009 Y153.103104 Z5.000000 I0.952289 J-3.425282
G02 X130.388608 Y153.058821 Z5.000000 I0.043233 J-0.214093
G02 X130.482828 Y152.880713 Z5.000000 I-0.161169 J-0.199234
G02 X130.429402 Y152.757475 Z5.000000 I-0.141735 J-0.011755
G02 X130.330542 Y152.759881 Z5.000000 I-0.047985 J0.060577
G03 X130.027464 Y152.862761 Z5.000000 I-0.276876 J-0.317796
G03 X129.905929 Y152.733421 Z5.000000 I0.008056 J-0.129340
G01 X129.938087 Y152.691776 Z5.000000
G03 X130.042838 Y152.697561 Z5.000000 I0.043372 J0.165920
G02 X130.153014 Y152.690054 Z5.000000 I0.046992 J-0.122572
G02 X130.241866 Y152.588211 Z5.000000 I-0.094534 J-0.172157
G03 X130.324752 Y152.487915 Z5.000000 I0.190985 J0.073436
G03 X130.403339 Y152.487850 Z5.000000 I0.039346 J0.063235
G01 X130.441444 Y152.475321 Z5.000000
G02 X130.442229 Y152.391300 Z5.000000 I-0.106638 J-0.043010
G02 X130.350293 Y152.298399 Z5.000000 I-0.151803 J0.058285
G02 X130.193774 Y152.292980 Z5.000000 I-0.085860 J0.216831
G03 X130.017652 Y152.333304 Z5.000000 I-0.334981 J-1.058292
G01 X130.000544 Y152.320790 Z5.000000
G03 X129.996438 Y152.289010 Z5.000000 I0.510623 J-0.082122
G03 X129.940374 Y151.703254 Z5.000000 I141.388047 J-13.828214
G03 X129.953997 Y151.204684 Z5.000000 I2.064653 J-0.193058
G03 X130.020714 Y151.164303 Z5.000000 I0.050095 J0.007462
G03 X130.101446 Y151.248603 Z5.000000 I-0.042256 J0.121275
G03 X130.144344 Y151.575532 Z5.000000 I-0.981412 J0.295054
G02 X130.252106 Y151.784210 Z5.000000 I0.241249 J0.007582
G02 X130.401884 Y151.746496 Z5.000000 I0.057736 J-0.086978
G02 X130.452290 Y151.362436 Z5.000000 I-0.483692 J-0.258819
G02 X130.255585 Y151.122564 Z5.000000 I-0.342565 J0.080328
G03 X130.035857 Y150.989538 Z5.000000 I0.456447 J-1.001928
G03 X130.005931 Y150.928330 Z5.000000 I0.047632 J-0.061208
G03 X130.222241 Y150.810387 Z5.000000 I0.140309 J0.000000
G03 X130.807318 Y151.445013 Z5.000000 I-0.931831 J1.446089
G03 X130.814221 Y151.589914 Z5.000000 I-0.148936 J0.079711
G03 X130.704846 Y151.689972 Z5.000000 I-0.162728 J-0.068072
G02 X130.538700 Y151.777742 Z5.000000 I0.160701 J0.505339
G02 X130.505225 Y151.846455 Z5.000000 I0.053784 J0.068713
G02 X130.607520 Y151.925586 Z5.000000 I0.081754 J0.000000
G02 X130.969478 Y151.725924 Z5.000000 I-0.209831 J-0.808311
G01 X131.196959 Y151.512220 Z5.000000
G01 X131.000931 Y151.896780 Z5.000000
G02 X130.843229 Y152.290654 Z5.000000 I2.091132 J1.065770
G02 X130.804821 Y152.553372 Z5.000000 I0.879317 J0.262718
G03 X130.780985 Y152.820972 Z5.000000 I-1.514067 J-0.000000
G03 X130.712201 Y153.068853 Z5.000000 I-1.363201 J-0.244790
G02 X130.712007 Y153.274311 Z5.000000 I0.270998 J0.102984
G02 X130.842519 Y153.413771 Z5.000000 I0.234418 J-0.088578
G02 X130.984463 Y153.385504 Z5.000000 I0.051361 J-0.112613
G02 X131.075395 Y153.163718 Z5.000000 I-0.248558 J-0.231442
G03 X131.132311 Y152.838724 Z5.000000 I1.125823 J0.029683
G03 X131.219692 Y152.726828 Z5.000000 I0.200549 J0.066545
G02 X131.247063 Y152.672080 Z5.000000 I-0.031729 J-0.050079
G01 X131.212892 Y152.640148 Z5.000000
G03 X131.137175 Y152.611881 Z5.000000 I0.001152 J-0.118630
G01 X131.135652 Y152.574438 Z5.000000
G03 X131.405390 Y152.566142 Z5.000000 I0.139282 J0.139360
G03 X131.447315 Y152.849657 Z5.000000 I-0.147216 J0.166627
G02 X131.446514 Y152.908399 Z5.000000 I0.048682 J0.030040
G02 X131.498315 Y152.938237 Z5.000000 I0.051801 J-0.030046
G02 X131.601305 Y152.830032 Z5.000000 I0.000000 J-0.103116
G02 X131.479315 Y152.551678 Z5.000000 I-0.426668 J0.021081
G01 X131.491235 Y152.500246 Z5.000000
G03 X131.654074 Y152.490178 Z5.000000 I0.099149 J0.281737
G03 X132.099501 Y152.693522 Z5.000000 I-0.246032 J1.128463
G03 X132.203306 Y152.900705 Z5.000000 I-0.154854 J0.207183
G03 X132.130981 Y153.005934 Z5.000000 I-0.112713 J0.000000
G03 X131.995193 Y152.980585 Z5.000000 I-0.047270 J-0.123156
G02 X131.925006 Y152.980767 Z5.000000 I-0.034994 J0.038662
G02 X131.908953 Y153.059475 Z5.000000 I0.046087 J0.050391
G02 X132.137808 Y153.162800 Z5.000000 I0.173423 J-0.079008
G02 X132.303207 Y152.939642 Z5.000000 I-0.067844 J-0.223158
G02 X132.189142 Y152.542852 Z5.000000 I-0.747175 J-0.000000
G02 X131.953694 Y152.382419 Z5.000000 I-0.300871 J0.188565
G03 X131.711471 Y152.217615 Z5.000000 I0.067427 J-0.359510
G03 X131.759464 Y152.073549 Z5.000000 I0.083195 J-0.052312
G03 X132.312955 Y152.119948 Z5.000000 I0.228727 J0.596011
G03 X132.623461 Y152.584141 Z5.000000 I-0.328258 J0.555525
G02 X132.706832 Y152.743397 Z5.000000 I0.266689 J-0.038162
G02 X132.952301 Y152.889414 Z5.000000 I0.462338 J-0.497900
G03 X133.244612 Y153.005455 Z5.000000 I-0.949911 J2.819039
G03 X133.451607 Y153.118893 Z5.000000 I-0.699266 J1.521558
G01 X133.466797 Y153.165134 Z5.000000
G01 X133.426097 Y153.185803 Z5.000000
G02 X133.236627 Y153.194638 Z5.000000 I-0.081106 J0.296697
G02 X133.135303 Y153.295347 Z5.000000 I0.061398 J0.163099
G02 X133.218420 Y153.563486 Z5.000000 I0.211749 J0.081314
G02 X133.776830 Y153.737133 Z5.000000 I0.558410 J-0.811037
G03 X134.105920 Y153.768660 Z5.000000 I-0.000000 J1.733367
G03 X134.304692 Y153.839292 Z5.000000 I-0.133637 J0.691082
G02 X134.410579 Y153.838607 Z5.000000 I0.052313 J-0.097786
G02 X134.440401 Y153.764412 Z5.000000 I-0.030550 J-0.055370
G01 X134.457769 Y153.747465 Z5.000000
G03 X134.507351 Y153.787092 Z5.000000 I-0.029887 J0.088229
G02 X134.699136 Y153.968701 Z5.000000 I0.432179 J-0.264325
G02 X134.796150 Y153.942772 Z5.000000 I0.034745 J-0.064453
G03 X134.892110 Y153.896002 Z5.000000 I0.084977 J0.052523
G03 X135.047498 Y153.970632 Z5.000000 I-0.028610 J0.258652
G02 X135.730766 Y154.183914 Z5.000000 I0.545065 J-0.545067
G02 X135.942252 Y153.807659 Z5.000000 I-0.050266 J-0.275817
G03 X135.937747 Y153.687446 Z5.000000 I0.173552 J-0.066695
G03 X136.039122 Y153.484612 Z5.000000 I0.636205 J0.191221
G03 X136.191686 Y153.380916 Z5.000000 I0.223775 J0.165153
G03 X136.310941 Y153.412612 Z5.000000 I0.031865 J0.120304
G03 X136.331813 Y153.494097 Z5.000000 I-0.057266 J0.058084
G03 X136.273591 Y153.537437 Z5.000000 I-0.058222 J-0.017437
G02 X136.065797 Y153.658538 Z5.000000 I0.000000 J0.238823
G02 X136.084656 Y153.870974 Z5.000000 I0.163366 J0.092552
G03 X136.153838 Y154.007125 Z5.000000 I-0.265655 J0.220639
G03 X136.171806 Y154.216092 Z5.000000 I-0.632771 J0.159664
G03 X136.075243 Y154.347501 Z5.000000 I-0.153391 J-0.011532
G03 X135.652230 Y154.422606 Z5.000000 I-0.394237 J-0.991645
G03 X135.150349 Y154.397550 Z5.000000 I0.299027 J-11.028629
G03 X134.899580 Y154.367776 Z5.000000 I0.201434 J-2.767473
G00 Z9.000000

(Change tool to Default tool)

G00 Z9.000000
G00 X90.061400 Y153.437670

G01 Z5.000000 F100.0(Penetrate)
G03 X90.091889 Y153.267594 Z5.000000 I0.489617 J0.000000 F1200.000000
G01 X90.136280 Y153.235652 Z5.000000
G02 X90.211175 Y153.231651 Z5.000000 I-0.044901 J-1.543489
G02 X91.459440 Y153.132693 Z5.000000 I-33.464055 J-430.040997
G03 X94.991123 Y152.881193 Z5.000000 I15.100814 J187.130266
G03 X99.448306 Y152.639480 Z5.000000 I18.373105 J297.583706
G02 X101.393417 Y152.523975 Z5.000000 I-3.595252 J-76.980155
G02 X102.225536 Y152.439351 Z5.000000 I-1.023010 J-14.192808
G03 X103.057647 Y152.354468 Z5.000000 I1.868583 J14.196754
G03 X105.021643 Y152.236341 Z5.000000 I5.755408 J79.304266
G02 X106.986601 Y152.126142 Z5.000000 I-5.571083 J-116.912092
G02 X107.986414 Y152.045104 Z5.000000 I-1.963610 J-30.434199
G03 X108.986574 Y151.973060 Z5.000000 I1.923457 J19.724128
G03 X111.381678 Y151.886827 Z5.000000 I5.258011 J112.735630
G02 X114.264376 Y151.565067 Z5.000000 I-0.429627 J-16.923252
G02 X115.055556 Y151.153846 Z5.000000 I-0.313050 J-1.569018
G02 X115.738614 Y150.281373 Z5.000000 I-2.647557 J-2.776386
G02 X118.202770 Y145.648523 Z5.000000 I-74.756672 J-42.733916
G02 X119.657936 Y141.734328 Z5.000000 I-18.316034 J-9.036874
G02 X119.389918 Y141.066911 Z5.000000 I-0.586558 J-0.151976
G02 X118.357388 Y140.663685 Z5.000000 I-1.616033 J2.614532
G02 X117.313414 Y140.665367 Z5.000000 I-0.517675 J2.677306
G03 X116.758516 Y140.720219 Z5.000000 I-0.562008 J-2.851254
G03 X116.546876 Y140.667367 Z5.000000 I-0.001091 J-0.445805
G02 X116.152246 Y140.552022 Z5.000000 I-0.471881 J0.881698
G02 X112.834702 Y140.339460 Z5.000000 I-9.624710 J124.221813
G02 X109.596278 Y140.223704 Z5.000000 I-5.499681 J108.503456
G02 X109.558117 Y140.313157 Z5.000000 I-0.001091 J0.052401
G02 X109.626934 Y140.344188 Z5.000000 I0.075606 J-0.075847
G02 X111.943197 Y140.464649 Z5.000000 I6.406943 J-100.865989
G03 X114.251914 Y140.602958 Z5.000000 I-2.415798 J59.663969
G03 X114.369218 Y140.657078 Z5.000000 I-0.014780 J0.186221
G03 X114.332729 Y140.745338 Z5.000000 I-0.036558 J0.036559
G03 X111.223196 Y140.661078 Z5.000000 I-0.073643 J-54.701256
G03 X109.681350 Y140.510238 Z5.000000 I1.018712 J-18.368563
G03 X109.176051 Y140.373275 Z5.000000 I0.292105 J-2.078253
G02 X108.671250 Y140.236035 Z5.000000 I-0.800631 J1.947898
G02 X107.337318 Y140.112339 Z5.000000 I-1.941996 J13.688036
G03 X105.989478 Y140.047487 Z5.000000 I6.910935 J-157.669904
G03 X104.391421 Y139.958255 Z5.000000 I12.224412 J-233.282660
G02 X100.226883 Y139.775626 Z5.000000 I-7.999218 J134.834476
G01 X100.198067 Y139.839224 Z5.000000
G02 X100.382505 Y139.931122 Z5.000000 I0.214113 J-0.198692
G02 X102.843573 Y140.109347 Z5.000000 I4.252736 J-41.643719
G03 X104.373782 Y140.243634 Z5.000000 I-0.738184 J17.197152
G03 X104.768796 Y140.365388 Z5.000000 I-0.164031 J1.233843
G02 X105.952172 Y140.866868 Z5.000000 I4.457021 J-8.870552
G02 X106.460340 Y140.956166 Z5.000000 I0.527109 J-1.509047
G03 X106.732214 Y141.098649 Z5.000000 I-0.003915 J0.338097
G03 X106.932480 Y141.621740 Z5.000000 I-0.918646 J0.651586
G02 X107.027001 Y142.060199 Z5.000000 I2.285887 J-0.263361
G02 X107.087668 Y142.105662 Z5.000000 I0.062326 J-0.019961
G03 X107.504762 Y142.241394 Z5.000000 I-0.018912 J0.766832
G03 X107.519462 Y142.403545 Z5.000000 I-0.060246 J0.087204
G03 X107.442800 Y142.447404 Z5.000000 I-0.118551 J-0.118289
G03 X107.060499 Y142.522081 Z5.000000 I-0.813724 J-3.149851
G03 X106.711450 Y142.444435 Z5.000000 I-0.068860 J-0.513826
G03 X105.818728 Y141.724398 Z5.000000 I2.882285 J-4.486965
G02 X104.453182 Y140.695548 Z5.000000 I-4.312011 J4.302501
G02 X103.521634 Y140.454965 Z5.000000 I-0.932685 J1.687605
G03 X102.893704 Y140.443948 Z5.000000 I0.010549 J-18.502494
G03 X101.610696 Y140.389105 Z5.000000 I2.700330 J-78.206249
G03 X100.370824 Y140.214094 Z5.000000 I0.357620 J-7.013021
G03 X99.938822 Y139.998647 Z5.000000 I0.237697 J-1.017455
G02 X99.528137 Y139.710638 Z5.000000 I-1.903854 J2.277973
G02 X99.074625 Y139.495751 Z5.000000 I-1.494945 J2.569035
G03 X98.382245 Y139.095549 Z5.000000 I0.848689 J-2.267332
G03 X94.566413 Y135.774834 Z5.000000 I61.662824 J-74.709469
G03 X93.654763 Y134.892757 Z5.000000 I16.106666 J-17.558805
G03 X93.418010 Y134.602867 Z5.000000 I1.480283 J-1.450571
G03 X92.614511 Y133.016631 Z5.000000 I5.886190 J-3.978237
G03 X92.557613 Y132.196720 Z5.000000 I1.429471 J-0.511129
G02 X92.650139 Y131.641601 Z5.000000 I-6.943944 J-1.442676
G02 X93.057216 Y128.235747 Z5.000000 I-261.149311 J-32.940507
G03 X93.159929 Y127.452375 Z5.000000 I21.918106 J2.475398
G03 X93.295984 Y126.637970 Z5.000000 I23.672531 J3.536188
G02 X93.442796 Y125.825090 Z5.000000 I-100.846702 J-18.633306
G02 X93.659578 Y124.577442 Z5.000000 I-238.158925 J-42.023427
G03 X94.173984 Y121.744363 Z5.000000 I138.112264 J23.613974
G03 X94.408231 Y120.682870 Z5.000000 I19.548912 J3.757407
G02 X95.157718 Y117.279616 Z5.000000 I-61.186138 J-15.258967
G02 X95.254159 Y116.262829 Z5.000000 I-5.311814 J-1.016787
G02 X95.193952 Y116.044888 Z5.000000 I-0.424566 J-0.000000
G02 X95.007993 Y115.851102 Z5.000000 I-0.514898 J0.307986
G02 X94.765446 Y115.772888 Z5.000000 I-0.263635 J0.402368
G01 X94.718297 Y115.838372 Z5.000000
G03 X94.740299 Y115.989646 Z5.000000 I-0.324074 J0.124372
G03 X94.670967 Y116.462502 Z5.000000 I-3.505628 J-0.272499
G02 X94.574927 Y116.939658 Z5.000000 I13.499349 J2.965330
G02 X94.355506 Y118.186297 Z5.000000 I91.728763 J16.787831
G03 X94.138211 Y119.433413 Z5.000000 I-127.307431 J-21.539328
G03 X93.988318 Y120.233426 Z5.000000 I-51.311306 J-9.199787
G02 X93.703082 Y121.727585 Z5.000000 I172.125849 J33.633306
G02 X93.411222 Y123.329115 Z5.000000 I198.310134 J36.966988
G03 X93.232983 Y124.223826 Z5.000000 I-21.992426 J-3.916096
G03 X93.048030 Y124.975819 Z5.000000 I-15.689557 J-3.460108
G02 X92.645374 Y126.822643 Z5.000000 I18.079197 J4.909046
G02 X92.352899 Y129.170974 Z5.000000 I28.981924 J4.801958
G03 X92.191990 Y130.407804 Z5.000000 I-13.547719 J-1.133648
G03 X91.994194 Y131.197043 Z5.000000 I-5.703050 J-1.009871
G02 X91.837442 Y131.968735 Z5.000000 I3.250093 J1.061950
G02 X91.899344 Y132.310695 Z5.000000 I0.663297 J0.056512
G03 X92.049319 Y132.863952 Z5.000000 I-1.458503 J0.692322
G03 X91.956004 Y132.965683 Z5.000000 I-0.093315 J0.008068
G03 X90.618949 Y132.408035 Z5.000000 I0.000000 J-1.881732
G03 X90.061438 Y131.052752 Z5.000000 I1.368560 J-1.355283
G03 X90.140892 Y130.948071 Z5.000000 I0.108686 J0.000000
G03 X90.720923 Y130.868603 Z5.000000 I0.580031 J2.077074
G01 X91.380305 Y130.868603 Z5.000000
G01 X91.070426 Y131.221714 Z5.000000
G02 X90.782677 Y131.582412 Z5.000000 I3.675454 J3.227233
G02 X90.763556 Y131.646122 Z5.000000 I0.082061 J0.059354
G02 X90.789270 Y131.705332 Z5.000000 I0.089415 J-0.003643
G02 X91.003221 Y131.889385 Z5.000000 I1.231179 J-1.214797
G02 X91.197372 Y131.905349 Z5.000000 I0.110199 J-0.151620
G02 X91.401967 Y131.689656 Z5.000000 I-0.195567 J-0.390385
G03 X91.571212 Y131.321375 Z5.000000 I9.896247 J4.324839
G03 X91.749984 Y130.968566 Z5.000000 I9.151303 J4.415355
G02 X91.887213 Y130.603703 Z5.000000 I-1.343583 J-0.713574
G02 X92.055656 Y129.670373 Z5.000000 I-8.759528 J-2.062745
G03 X92.190220 Y128.723863 Z5.000000 I30.949888 J3.917272
G03 X92.528601 Y126.674551 Z5.000000 I144.527506 J22.811713
G02 X92.874838 Y124.626324 Z5.000000 I-312.164997 J-53.822412
G02 X93.008429 Y123.778582 Z5.000000 I-53.718736 J-8.899660
G03 X93.142726 Y122.930992 Z5.000000 I49.111325 J7.347069
G03 X93.300821 Y122.031018 Z5.000000 I55.557999 J9.295762
G02 X93.464828 Y121.132019 Z5.000000 I-309.734258 J-56.970171
G02 X93.662023 Y120.033806 Z5.000000 I-412.462211 J-74.628489
G02 X93.857785 Y118.935343 Z5.000000 R28369.810516
G03 X94.018022 Y118.036586 Z5.000000 I5020.735631 J896.039208
G03 X94.197449 Y117.142220 Z5.000000 I21.002898 J3.748408
G03 X94.366737 Y116.473262 Z5.000000 I11.822622 J2.635957
G02 X94.515171 Y115.530253 Z5.000000 I-3.829844 J-1.086021
G02 X94.409207 Y115.293604 Z5.000000 I-0.293659 J-0.010557
G02 X94.251133 Y115.232656 Z5.000000 I-0.169737 J0.204765
G02 X93.934868 Y115.272864 Z5.000000 I-0.041241 J0.939541
G03 X93.601292 Y115.345317 Z5.000000 I-0.606104 J-1.986408
G03 X92.707680 Y115.435243 Z5.000000 I-1.882480 J-14.221549
G02 X90.811943 Y115.656744 Z5.000000 I1.387893 J20.101586
G02 X90.522730 Y115.796138 Z5.000000 I0.092907 J0.562489
G01 X90.529369 Y115.848991 Z5.000000
G02 X90.805337 Y115.945131 Z5.000000 I0.455986 J-0.864744
G03 X91.141071 Y116.056130 Z5.000000 I-0.243000 J1.298229
G03 X91.228248 Y116.151244 Z5.000000 I-0.077108 J0.158182
G02 X91.300888 Y116.227565 Z5.000000 I0.127677 J-0.048790
G02 X91.387922 Y116.221474 Z5.000000 I0.037728 J-0.085764
G03 X91.501855 Y116.170706 Z5.000000 I0.246102 J0.399072
G03 X92.251313 Y115.967829 Z5.000000 I5.111773 J17.397914
G02 X93.006920 Y115.778996 Z5.000000 I-51.868281 J-209.154541
G02 X93.328518 Y115.696510 Z5.000000 I-9.267742 J-36.801545
G01 X93.649869 Y115.612400 Z5.000000
G01 X93.514759 Y115.875833 Z5.000000
G02 X93.329277 Y116.436235 Z5.000000 I1.710952 J0.877188
G02 X93.003776 Y118.935341 Z5.000000 I34.534850 J5.768808
G03 X92.747217 Y120.430250 Z5.000000 I-9.890844 J-0.928011
G03 X92.448448 Y121.143364 Z5.000000 I-2.502719 J-0.629407
G03 X91.903972 Y121.725660 Z5.000000 I-1.674430 J-1.019971
G03 X91.209779 Y122.016948 Z5.000000 I-1.007920 J-1.429222
G03 X90.311895 Y121.995689 Z5.000000 I-0.397641 J-2.177398
G03 X90.080045 Y121.754912 Z5.000000 I0.069315 J-0.298761
G03 X90.141092 Y121.659588 Z5.000000 I0.080724 J-0.015513
G03 X90.782771 Y121.581654 Z5.000000 I0.641679 J2.602709
G02 X91.470465 Y121.467283 Z5.000000 I0.000000 J-2.124675
G02 X91.888527 Y121.202980 Z5.000000 I-0.344978 J-1.008458
G02 X92.237188 Y120.815673 Z5.000000 I-4.594546 J-4.486690
G02 X92.258314 Y120.757104 Z5.000000 I-0.070625 J-0.058569
G01 X92.228890 Y120.735091 Z5.000000
G02 X91.783974 Y120.896810 Z5.000000 I1.070572 J3.638187
G03 X91.298285 Y121.058569 Z5.000000 I-1.147806 J-2.636311
G03 X90.685510 Y121.156546 Z5.000000 I-0.968888 J-4.094469
G03 X90.133048 Y121.131579 Z5.000000 I-0.180602 J-2.128582
G03 X90.061371 Y121.046121 Z5.000000 I0.015107 J-0.085458
G03 X90.125991 Y120.947028 Z5.000000 I0.108288 J0.000000
G03 X90.435854 Y120.881147 Z5.000000 I0.312902 J0.710048
G02 X90.800507 Y120.846442 Z5.000000 I-0.008861 J-2.026200
G02 X90.960123 Y120.782737 Z5.000000 I-0.082023 J-0.437330
G01 X90.952076 Y120.732236 Z5.000000
G02 X90.585641 Y120.684317 Z5.000000 I-0.370707 J1.409781
G03 X90.127022 Y120.617375 Z5.000000 I0.004450 J-1.634947
G03 X90.061371 Y120.529532 Z5.000000 I0.025942 J-0.087843
G03 X90.114593 Y120.465087 Z5.000000 I0.065628 J0.000000
G03 X90.272078 Y120.488982 Z5.000000 I0.045050 J0.234011
G02 X90.493669 Y120.549394 Z5.000000 I0.242724 J-0.453704
G02 X91.295654 Y120.530992 Z5.000000 I0.257475 J-6.263731
G02 X92.321519 Y120.304707 Z5.000000 I-0.350269 J-4.026472
G02 X92.458037 Y120.110077 Z5.000000 I-0.070480 J-0.194630
G02 X92.415106 Y120.047420 Z5.000000 I-0.067189 J-0.000000
G02 X92.338204 Y120.063657 Z5.000000 I-0.025990 J0.067132
G01 X92.256543 Y120.041401 Z5.000000
G03 X92.292014 Y119.885112 Z5.000000 I0.169161 J-0.043777
G02 X92.476683 Y119.536098 Z5.000000 I-0.715126 J-0.601749
G02 X92.909448 Y117.686975 Z5.000000 I-20.818844 J-5.847599
G02 X93.113450 Y116.253624 Z5.000000 I-15.923146 J-2.997461
G02 X93.054846 Y116.189061 Z5.000000 I-0.058604 J-0.005684
G02 X92.994621 Y116.227336 Z5.000000 I0.000000 J0.066518
G02 X92.855721 Y116.613473 Z5.000000 I1.995983 J0.936042
G03 X91.969588 Y118.566546 Z5.000000 I-6.003163 J-1.546147
G03 X91.026268 Y119.288841 Z5.000000 I-1.570541 J-1.073996
G03 X90.320245 Y119.214639 Z5.000000 I-0.274335 J-0.785699
G03 X90.267525 Y118.828483 Z5.000000 I0.130107 J-0.214440
G02 X91.073252 Y117.313160 Z5.000000 I-2.381239 J-2.238024
G02 X90.838036 Y116.313890 Z5.000000 I-1.140998 J-0.258741
G02 X90.716849 Y116.229208 Z5.000000 I-0.209954 J0.171405
G02 X90.473648 Y116.187567 Z5.000000 I-0.247341 J0.713562
G03 X90.357066 Y116.143431 Z5.000000 I0.000953 J-0.178557
G01 X90.361001 Y116.089147 Z5.000000
G01 X90.370818 Y116.033098 Z5.000000
G02 X90.286111 Y115.990737 Z5.000000 I-0.085476 J0.065048
G03 X90.139165 Y115.912091 Z5.000000 I0.001047 J-0.178560
G03 X90.061424 Y115.658003 Z5.000000 I0.376358 J-0.254088
G01 X90.061424 Y115.326862 Z5.000000
G01 X91.534371 Y115.155799 Z5.000000
G02 X93.006327 Y114.976784 Z5.000000 I-15.898389 J-136.866026
G02 X93.636341 Y114.888568 Z5.000000 I-3.154027 J-24.818999
G03 X94.257999 Y114.853551 Z5.000000 I0.493804 J3.230855
G03 X94.585024 Y114.925668 Z5.000000 I-0.037009 J0.945353
G02 X94.910160 Y115.040813 Z5.000000 I1.210084 J-2.900309
G02 X95.277958 Y115.128985 Z5.000000 I1.061950 J-3.618586
G03 X95.634789 Y115.422460 Z5.000000 I-0.088072 J0.470755
G03 X95.701468 Y116.191705 Z5.000000 I-1.242871 J0.495246
G02 X95.578954 Y116.840314 Z5.000000 I16.493254 J3.451230
G02 X95.398785 Y117.986406 Z5.000000 I51.198923 J8.635847
G03 X95.217581 Y119.132360 Z5.000000 I-47.287683 J-6.890048
G03 X95.083828 Y119.833828 Z5.000000 I-18.098238 J-3.087420
G02 X94.950596 Y120.535251 Z5.000000 I17.156853 J3.622223
G02 X94.856042 Y121.181950 Z5.000000 I14.537014 J2.455726
G03 X94.764608 Y121.829388 Z5.000000 I-18.656530 J-2.304591
G03 X94.474974 Y123.578619 Z5.000000 I-136.813391 J-21.754651
G02 X94.182217 Y125.327528 Z5.000000 I184.874123 J31.845845
G02 X93.963690 Y126.724242 Z5.000000 I117.635363 J19.120396
G03 X93.625963 Y128.842608 Z5.000000 I-120.361928 J-18.102956
G03 X93.257063 Y130.918402 Z5.000000 I-115.897121 J-19.526004
G02 X93.092372 Y131.919996 Z5.000000 I22.789108 J4.261524
G02 X93.005313 Y132.691032 Z5.000000 I13.412511 J1.904863
G02 X93.020792 Y133.357930 Z5.000000 I3.111836 J0.261400
G02 X93.098723 Y133.404340 Z5.000000 I0.057249 J-0.007497
G03 X93.193543 Y133.435655 Z5.000000 I0.028278 J0.073589
G03 X93.257004 Y133.653890 Z5.000000 I-0.343516 J0.218235
G02 X93.297896 Y133.923335 Z5.000000 I0.908159 J-0.000000
G02 X93.353324 Y133.964156 Z5.000000 I0.055428 J-0.017221
G02 X93.498938 Y133.856289 Z5.000000 I0.000000 J-0.152219
G02 X93.796302 Y132.509984 Z5.000000 I-8.433619 J-2.568759
G03 X93.958687 Y131.419185 Z5.000000 I61.853213 J8.650497
G03 X94.197344 Y129.969727 Z5.000000 I110.323497 J17.420641
G02 X94.444033 Y128.521477 Z5.000000 I-692.941288 J-118.777725
G02 X94.493034 Y128.222163 Z5.000000 I-27.696448 J-4.687920
G03 X95.239661 Y124.178587 Z5.000000 I80.804582 J12.829457
G03 X95.355730 Y124.128863 Z5.000000 I0.075503 J0.015913
G02 X95.458268 Y124.079921 Z5.000000 I0.035536 J-0.057433
G02 X95.590402 Y122.276846 Z5.000000 I-16.959146 J-2.149187
G03 X95.664601 Y121.403175 Z5.000000 I6.822000 J0.139388
G03 X95.738594 Y121.291016 Z5.000000 I0.157944 J0.023712
G02 X95.825827 Y121.183223 Z5.000000 I-0.110490 J-0.178608
G02 X95.924442 Y120.771943 Z5.000000 I-1.837022 J-0.657938
G03 X96.002954 Y120.340120 Z5.000000 I4.117967 J0.525659
G03 X96.070135 Y120.158398 Z5.000000 I0.778528 J0.184536
G03 X96.441277 Y119.897896 Z5.000000 I0.433261 J0.222638
G03 X96.652225 Y120.083458 Z5.000000 I0.023858 J0.185562
G03 X96.611947 Y120.142952 Z5.000000 I-0.064078 J0.000000
G03 X96.402570 Y120.183278 Z5.000000 I-0.209377 J-0.523394
G02 X96.229647 Y120.259886 Z5.000000 I0.000000 J0.233471
G02 X96.153416 Y120.457897 Z5.000000 I0.217717 J0.197496
G03 X96.135153 Y120.730761 Z5.000000 I-2.006827 J0.002725
G03 X96.007423 Y121.531400 Z5.000000 I-17.329392 J-2.354138
G02 X95.874138 Y122.332279 Z5.000000 I24.451297 J4.480799
G02 X95.745786 Y123.278967 Z5.000000 I34.177711 J5.115859
G03 X95.591275 Y124.217714 Z5.000000 I-11.189590 J-1.359639
G03 X95.454497 Y124.677019 Z5.000000 I-2.793088 J-0.581744
G02 X95.304206 Y125.133203 Z5.000000 I4.080595 J1.597210
G02 X95.212133 Y125.575762 Z5.000000 I3.745113 J1.010018
G03 X95.137745 Y126.023713 Z5.000000 I-12.547645 J-1.853536
G03 X95.009516 Y126.674233 Z5.000000 I-26.807967 J-4.946440
G02 X94.882488 Y127.325012 Z5.000000 I23.347501 J4.895086
G02 X94.711631 Y128.321937 Z5.000000 I54.463128 J9.847193
G03 X94.544859 Y129.319671 Z5.000000 I-97.618873 J-15.804292
G03 X94.358720 Y130.369083 Z5.000000 I-109.090980 J-18.808722
G02 X93.796796 Y134.042279 Z5.000000 I63.857552 J11.648474
G02 X93.852826 Y134.455389 Z5.000000 I0.810830 J0.100383
G02 X94.025429 Y134.716246 Z5.000000 I0.758360 J-0.314258
G02 X95.039372 Y135.663802 Z5.000000 I11.518575 J-11.309307
G03 X97.697435 Y137.959050 Z5.000000 I-311.727665 J363.689928
G03 X98.326390 Y138.523318 Z5.000000 I-18.134126 J20.845656
G02 X98.923425 Y138.950624 Z5.000000 I1.995530 J-2.157428
G02 X99.390309 Y139.098914 Z5.000000 I0.622299 J-1.150148
G02 X101.318911 Y139.270138 Z5.000000 I3.753837 J-31.334653
G02 X103.991995 Y139.365643 Z5.000000 I3.491543 J-60.268472
G03 X104.537750 Y139.416621 Z5.000000 I-0.042866 J3.405762
G01 X104.541232 Y139.461573 Z5.000000
G01 X104.546907 Y139.504257 Z5.000000
G02 X105.839419 Y139.545313 Z5.000000 I1.274537 J-19.758680
G03 X109.327573 Y139.599989 Z5.000000 I0.101372 J104.826954
G03 X110.133439 Y139.684317 Z5.000000 I-0.182079 J5.632717
G02 X111.641899 Y139.860223 Z5.000000 I2.219728 J-12.479213
G02 X111.681276 Y139.771277 Z5.000000 I0.002917 J-0.051898
G02 X111.570386 Y139.693208 Z5.000000 I-0.290931 J0.295454
G02 X111.381696 Y139.626879 Z5.000000 I-0.391583 J0.812403
G01 X111.383232 Y139.615164 Z5.000000
G03 X111.681276 Y139.636679 Z5.000000 I-0.129052 J3.862856
G02 X112.575317 Y139.708395 Z5.000000 I1.536538 J-13.546552
G02 X115.208362 Y139.803047 Z5.000000 I5.537438 J-117.370584
G03 X117.327402 Y139.893986 Z5.000000 I-1.426190 J57.967103
G03 X117.505165 Y139.943651 Z5.000000 I-0.026908 J0.439268
G02 X117.679436 Y140.012367 Z5.000000 I0.402459 J-0.765336
G02 X118.072375 Y140.098934 Z5.000000 I1.057769 J-3.866267
G03 X119.230751 Y140.426737 Z5.000000 I-0.917328 J5.452227
G03 X119.840807 Y140.815335 Z5.000000 I-0.748891 J1.848835
G02 X120.048226 Y140.972461 Z5.000000 I0.876793 J-0.941972
G01 X120.067891 Y140.953641 Z5.000000
G01 X120.085681 Y140.928447 Z5.000000
G03 X120.177195 Y140.971621 Z5.000000 I-0.029855 J0.181860
G03 X120.423502 Y141.481199 Z5.000000 I-0.475433 J0.544119
G03 X120.259025 Y142.683834 Z5.000000 I-3.317926 J0.158792
G03 X120.060263 Y143.189086 Z5.000000 I-4.659502 J-1.541292
G03 X119.254926 Y144.872385 Z5.000000 I-52.669916 J-24.164441
G02 X118.431020 Y146.546459 Z5.000000 I167.273641 J83.364495
G02 X118.421784 Y146.586597 Z5.000000 I0.082593 J0.040138
G03 X118.411770 Y146.626343 Z5.000000 I-0.083883 J0.000000
G03 X117.897519 Y147.561040 Z5.000000 I-50.204923 J-27.012894
G02 X117.391471 Y148.503592 Z5.000000 I24.887039 J13.968751
G02 X116.932824 Y149.442648 Z5.000000 I23.669350 J12.141953
G03 X115.905913 Y151.063321 Z5.000000 I-6.704545 J-3.112536
G03 X114.879294 Y151.905904 Z5.000000 I-2.720437 J-2.267917
G03 X114.223003 Y152.108404 Z5.000000 I-0.828906 J-1.521684
G03 X108.136195 Y152.580977 Z5.000000 I-13.638065 J-136.224602
G02 X105.390334 Y152.737707 Z5.000000 I41.788132 J756.244520
G02 X103.792256 Y152.836802 Z5.000000 I15.200984 J258.078778
G03 X102.194054 Y152.933687 Z5.000000 I-11.383965 J-174.558438
G03 X98.349842 Y153.141774 Z5.000000 I-56.876960 J-1015.134318
G02 X94.506177 Y153.357758 Z5.000000 I25.399538 J486.319772
G02 X92.557912 Y153.490285 Z5.000000 I7.485971 J124.437774
G03 X90.176604 Y153.555319 Z5.000000 I-1.862509 J-24.568191
G03 X90.061392 Y153.437655 Z5.000000 I0.002478 J-0.117664
G00 Z9.000000

(Change tool to Default tool)

G00 Z9.000000
G00 X134.152642 Y152.447335

G01 Z5.000000 F100.0(Penetrate)
G02 X134.212126 Y152.235851 Z5.000000 I-1.072837 J-0.415864 F1200.000000
G02 X134.334388 Y151.440434 Z5.000000 I-15.196957 J-2.743000
G01 X134.378948 Y151.090927 Z5.000000
G01 X133.715181 Y151.098027 Z5.000000
G02 X132.890494 Y151.265859 Z5.000000 I0.023677 J2.226419
G02 X132.513954 Y151.592345 Z5.000000 I0.298751 J0.724930
G02 X132.407117 Y151.910831 Z5.000000 I0.695949 J0.410620
G02 X132.461794 Y152.047008 Z5.000000 I0.153145 J0.017576
G03 X132.561721 Y152.169534 Z5.000000 I-0.261787 J0.315512
G01 X132.554134 Y152.220164 Z5.000000
G01 X132.500411 Y152.227970 Z5.000000
G03 X132.277118 Y152.068877 Z5.000000 I0.552905 J-1.012270
G02 X131.672799 Y151.753194 Z5.000000 I-0.903502 J0.993321
G02 X131.544336 Y151.901310 Z5.000000 I-0.024752 J0.108299
G03 X131.456689 Y152.370747 Z5.000000 I-0.425887 J0.163384
G03 X131.111547 Y152.379445 Z5.000000 I-0.176710 J-0.159894
G01 X131.105742 Y152.326347 Z5.000000
G03 X131.229175 Y152.194703 Z5.000000 I0.412279 J0.262876
G02 X131.361459 Y152.023879 Z5.000000 I-0.230460 J-0.315097
G01 X131.313195 Y151.983403 Z5.000000
G01 X131.275545 Y151.967931 Z5.000000
G03 X131.276975 Y151.831905 Z5.000000 I0.271895 J-0.065163
G03 X131.371918 Y151.660899 Z5.000000 I0.381578 J0.099995
G03 X131.552991 Y151.540016 Z5.000000 I0.354882 J0.335525
G02 X131.926450 Y151.098693 Z5.000000 I-0.212099 J-0.558160
G02 X131.771784 Y150.443743 Z5.000000 I-0.793556 J-0.158339
G01 X131.776908 Y150.415214 Z5.000000
G01 X131.814594 Y150.417253 Z5.000000
G03 X132.064795 Y150.923234 Z5.000000 I-0.400210 J0.512750
G03 X131.825894 Y151.564758 Z5.000000 I-0.954132 J0.009930
G02 X131.833798 Y151.658416 Z5.000000 I0.048853 J0.043040
G02 X132.008340 Y151.712350 Z5.000000 I0.154692 J-0.191220
G02 X132.291257 Y151.604147 Z5.000000 I-0.043690 J-0.538206
G02 X132.544994 Y151.304715 Z5.000000 I-0.548242 J-0.721802
G01 X132.745214 Y150.924448 Z5.000000
G01 X132.500253 Y150.739706 Z5.000000
G03 X132.311729 Y150.550865 Z5.000000 I0.576241 J-0.763800
G01 X132.315714 Y150.494349 Z5.000000
G03 X132.683715 Y150.433181 Z5.000000 I0.226779 J0.226779
G03 X132.901496 Y150.781949 Z5.000000 I-0.171349 J0.349374
G01 X132.925650 Y150.789956 Z5.000000
G02 X133.076253 Y150.547177 Z5.000000 I-1.349742 J-1.005384
G03 X133.332368 Y150.348840 Z5.000000 I0.337781 J0.171650
G03 X133.465813 Y150.461217 Z5.000000 I0.023683 J0.107297
G02 X133.530235 Y150.724822 Z5.000000 I0.480169 J0.022327
G02 X133.675615 Y150.822810 Z5.000000 I0.173630 J-0.100766
G02 X133.866333 Y150.796091 Z5.000000 I0.048892 J-0.345029
G02 X133.962015 Y150.695191 Z5.000000 I-0.073928 J-0.165922
G03 X134.050560 Y150.560240 Z5.000000 I0.354472 J0.136055
G03 X134.236237 Y150.426261 Z5.000000 I0.533456 J0.543646
G01 X134.449136 Y150.316858 Z5.000000
G01 X134.249415 Y150.524169 Z5.000000
G02 X133.944762 Y150.958529 Z5.000000 I1.235231 J1.190390
G02 X133.995866 Y151.040550 Z5.000000 I0.051104 J0.025090
G02 X134.156226 Y150.997312 Z5.000000 I0.000000 J-0.318993
G02 X134.199482 Y150.922120 Z5.000000 I-0.043727 J-0.075192
G03 X134.229885 Y150.815756 Z5.000000 I0.201255 J-0.000000
G03 X134.417285 Y150.571905 Z5.000000 I1.328777 J0.827232
G02 X134.519630 Y150.350796 Z5.000000 I-0.281670 J-0.264618
G02 X134.458205 Y150.210710 Z5.000000 I-0.151345 J-0.017147
G03 X134.382182 Y150.078258 Z5.000000 I0.110886 J-0.151688
G03 X134.431995 Y149.956266 Z5.000000 I0.139202 J-0.014326
G03 X134.568568 Y149.922212 Z5.000000 I0.103641 J0.124761
G03 X134.698218 Y150.011446 Z5.000000 I-0.041193 J0.198653
G02 X134.742190 Y150.037945 Z5.000000 I0.048787 J-0.031223
G01 X134.759378 Y150.016546 Z5.000000
G03 X134.825263 Y149.903805 Z5.000000 I0.084441 J-0.026275
G03 X134.955612 Y149.974456 Z5.000000 I0.023917 J0.111445
G03 X134.948124 Y150.510712 Z5.000000 I-0.673700 J0.258773
G03 X134.698965 Y150.590894 Z5.000000 I-0.158761 J-0.066125
G01 X134.640220 Y150.603093 Z5.000000
G02 X134.598965 Y150.734695 Z5.000000 I0.189274 J0.131602
G03 X134.568170 Y150.909525 Z5.000000 I-0.511665 J0.000000
G01 X134.524025 Y150.940609 Z5.000000
G01 X134.482373 Y150.975730 Z5.000000
G02 X134.417632 Y151.553053 Z5.000000 I4.732215 J0.822965
G02 X134.485918 Y152.042698 Z5.000000 I1.306611 J0.067363
G02 X134.606766 Y152.107683 Z5.000000 I0.095389 J-0.032529
G03 X134.729460 Y152.104378 Z5.000000 I0.068444 J0.261794
G01 X134.738089 Y152.134573 Z5.000000
G03 X134.639400 Y152.202462 Z5.000000 I-0.266386 J-0.281564
G03 X134.449085 Y152.273281 Z5.000000 I-0.482388 J-1.005213
G01 X134.450645 Y152.296262 Z5.000000
G02 X134.715220 Y152.307851 Z5.000000 I0.199824 J-1.536017
G03 X135.051029 Y152.352609 Z5.000000 I0.040865 J0.975519
G01 X135.071121 Y152.420871 Z5.000000
G03 X134.940179 Y152.494952 Z5.000000 I-0.162739 J-0.134886
G03 X134.620455 Y152.489431 Z5.000000 I-0.143613 J-0.943813
G02 X134.354247 Y152.476673 Z5.000000 I-0.179143 J0.954264
G01 X134.335047 Y152.515081 Z5.000000
G01 X134.327951 Y152.569853 Z5.000000
G03 X134.240657 Y152.604661 Z5.000000 I-0.087294 J-0.092057
G03 X134.159978 Y152.557352 Z5.000000 I-0.000000 J-0.092448
G03 X134.152137 Y152.446483 Z5.000000 I0.113983 J-0.063773
G00 Z9.000000

(Change tool to Default tool)

G00 Z9.000000
G00 X90.061358 Y152.256699

G01 Z5.000000 F100.0(Penetrate)
G03 X90.146314 Y152.134672 Z5.000000 I0.130115 J0.000000 F1200.000000
G03 X90.885207 Y151.951825 Z5.000000 I1.183372 J3.197683
G03 X92.525222 Y151.794664 Z5.000000 I3.043506 J23.124213
G03 X97.101549 Y151.576947 Z5.000000 I10.878084 J180.447818
G02 X99.928495 Y151.426741 Z5.000000 I-2.714530 J-77.765937
G02 X100.458967 Y151.337181 Z5.000000 I-0.199895 J-2.799802
G03 X100.879751 Y151.265878 Z5.000000 I0.584142 J2.169994
G03 X101.193647 Y151.283531 Z5.000000 I0.088872 J1.219341
G02 X101.510539 Y151.306517 Z5.000000 I0.259780 J-1.385535
G02 X102.500923 Y151.231351 Z5.000000 I-0.571309 J-14.089776
G03 X103.494656 Y151.153021 Z5.000000 I1.676037 J14.920421
G03 X105.460197 Y151.096639 Z5.000000 I2.662470 J58.527797
G02 X107.410720 Y151.025861 Z5.000000 I-0.479412 J-40.123954
G02 X107.557276 Y150.969311 Z5.000000 I-0.015706 J-0.258886
G03 X107.700838 Y150.900378 Z5.000000 I0.220116 J0.274461
G03 X108.236031 Y150.817921 Z5.000000 I0.886867 J3.978180
G02 X109.586060 Y150.517732 Z5.000000 I-0.451390 J-5.215832
G02 X110.383734 Y150.030917 Z5.000000 I-0.822712 J-2.244985
G03 X110.815933 Y149.671100 Z5.000000 I3.773519 J4.093131
G03 X110.900914 Y149.642762 Z5.000000 I0.084981 J0.113254
G02 X110.989298 Y149.618460 Z5.000000 I0.000000 J-0.172874
G02 X111.488598 Y149.293253 Z5.000000 I-3.747611 J-6.299714
G03 X111.989685 Y148.973719 Z5.000000 I3.411373 J4.796979
G03 X112.103039 Y148.943736 Z5.000000 I0.113354 J0.199285
G02 X112.205421 Y148.905929 Z5.000000 I0.000000 J-0.157532
G02 X112.382456 Y148.704770 Z5.000000 I-0.616895 J-0.721393
G03 X112.579922 Y148.529568 Z5.000000 I0.421429 J0.276102
G03 X113.004780 Y148.395899 Z5.000000 I0.637841 J1.285308
G02 X113.424983 Y148.236701 Z5.000000 I-0.157141 J-1.048938
G02 X114.096760 Y147.687379 Z5.000000 I-2.154260 J-3.319912
G02 X114.697093 Y147.028396 Z5.000000 I-8.652423 J-8.485288
G02 X114.975837 Y146.648135 Z5.000000 I-2.591247 J-2.191768
G03 X115.273789 Y146.419869 Z5.000000 I0.457915 J0.289121
G03 X115.383465 Y146.522110 Z5.000000 I0.025526 J0.082563
G03 X115.126032 Y147.242136 Z5.000000 I-3.280883 J-0.766991
G03 X115.027063 Y147.246905 Z5.000000 I-0.050803 J-0.024986
G01 X114.956721 Y147.231964 Z5.000000
G02 X114.779409 Y147.414867 Z5.000000 I0.356285 J0.522792
G03 X114.193485 Y148.137146 Z5.000000 I-3.392761 J-2.153465
G03 X113.929294 Y148.244706 Z5.000000 I-0.264191 J-0.270677
G02 X113.793742 Y148.298834 Z5.000000 I0.000000 J0.196793
G02 X113.191720 Y148.945434 Z5.000000 I4.971089 J5.231933
G03 X112.200890 Y149.854776 Z5.000000 I-3.724555 J-3.063839
G03 X111.597841 Y150.042199 Z5.000000 I-0.603049 J-0.876468
G02 X110.953952 Y150.250884 Z5.000000 I0.000000 J1.097690
G02 X111.007167 Y150.470012 Z5.000000 I0.071465 J0.098670
G01 X111.014367 Y150.497749 Z5.000000
G03 X110.932227 Y150.527972 Z5.000000 I-0.088935 J-0.114978
G02 X110.585119 Y150.559675 Z5.000000 I0.164233 J3.714160
G02 X110.338455 Y150.609612 Z5.000000 I0.280355 J2.018994
G02 X110.257910 Y150.684092 Z5.000000 I0.030358 J0.113622
G02 X110.288545 Y150.751019 Z5.000000 I0.049927 J0.017621
G03 X110.332582 Y150.801805 Z5.000000 I-0.026364 J0.067346
G01 X110.308075 Y150.834049 Z5.000000
G02 X110.166218 Y150.872515 Z5.000000 I0.011810 J0.324357
G02 X110.133319 Y150.927549 Z5.000000 I0.029581 J0.055034
G03 X110.093165 Y150.977077 Z5.000000 I-0.050622 J0.000000
G03 X109.459256 Y151.069951 Z5.000000 I-1.055093 J-4.991714
G02 X108.785793 Y151.132511 Z5.000000 I2.943111 J35.338780
G02 X107.936384 Y151.226231 Z5.000000 I5.640474 J55.017432
G03 X107.086269 Y151.312440 Z5.000000 I-3.067615 J-26.015268
G03 X105.439855 Y151.438326 Z5.000000 I-8.279482 J-97.455107
G02 X103.792520 Y151.555272 Z5.000000 I18.295280 J269.372802
G02 X101.994657 Y151.693588 Z5.000000 I23.354351 J315.319533
G03 X98.356437 Y151.953507 Z5.000000 I-17.378742 J-217.666397
G03 X94.155576 Y152.187894 Z5.000000 I-18.308095 J-290.368573
G02 X91.111026 Y152.349945 Z5.000000 I15.939175 J328.139956
G02 X90.585552 Y152.394509 Z5.000000 I0.568847 J9.827845
G03 X90.142688 Y152.362190 Z5.000000 I-0.134784 J-1.203469
G03 X90.061285 Y152.256603 Z5.000000 I0.027775 J-0.105587
G00 Z9.000000

(Change tool to Default tool)

G00 Z9.000000
G00 X130.714846 Y150.418573

G01 Z5.000000 F100.0(Penetrate)
G02 X130.435775 Y150.053852 Z5.000000 I-0.750983 J0.285498 F1200.000000
G02 X130.201964 Y150.046396 Z5.000000 I-0.122402 J0.168651
G03 X129.647576 Y150.205523 Z5.000000 I-0.549210 J-0.868123
G03 X129.356541 Y150.042496 Z5.000000 I0.001736 J-0.344390
G01 X129.377787 Y149.988887 Z5.000000
G03 X129.727821 Y149.942676 Z5.000000 I0.350034 J1.302580
G02 X130.442691 Y149.739080 Z5.000000 I-0.000000 J-1.356830
G02 X130.569952 Y149.420604 Z5.000000 I-0.152160 J-0.245466
G03 X130.588510 Y149.263088 Z5.000000 I0.210441 J-0.055058
G03 X130.702264 Y149.173348 Z5.000000 I0.159435 J0.085132
G02 X130.772627 Y149.078138 Z5.000000 I-0.023831 J-0.091217
G02 X130.685844 Y148.784994 Z5.000000 I-0.628489 J0.026641
G02 X130.458443 Y148.491622 Z5.000000 I-1.265645 J0.746219
G02 X130.345223 Y148.444768 Z5.000000 I-0.113220 J0.113367
G03 X130.239260 Y148.410853 Z5.000000 I-0.000000 J-0.182491
G03 X130.205314 Y148.344948 Z5.000000 I0.047003 J-0.065905
G03 X130.234543 Y148.274380 Z5.000000 I0.099803 J0.000000
G03 X130.305134 Y148.245138 Z5.000000 I0.070591 J0.070585
G02 X130.374220 Y148.214418 Z5.000000 I-0.000000 J-0.093045
G02 X130.404954 Y148.134468 Z5.000000 I-0.088624 J-0.079950
G02 X130.360257 Y148.081111 Z5.000000 I-0.054196 J0.000000
G02 X130.146917 Y148.088588 Z5.000000 I-0.089233 J0.501262
G03 X129.961425 Y148.100317 Z5.000000 I-0.124532 J-0.496814
G01 X129.943996 Y148.064168 Z5.000000
G02 X129.954950 Y147.977199 Z5.000000 I-0.089588 J-0.055458
G02 X129.855666 Y147.785557 Z5.000000 I-0.593845 J0.186115
G03 X129.787892 Y147.559424 Z5.000000 I0.269249 J-0.203919
G03 X129.875216 Y147.488869 Z5.000000 I0.076225 J0.005024
G03 X130.013264 Y147.548901 Z5.000000 I-0.041748 J0.284742
G03 X130.082525 Y147.654735 Z5.000000 I-0.126947 J0.158659
G01 X130.062324 Y147.678399 Z5.000000
G03 X130.005465 Y147.646635 Z5.000000 I0.008717 J-0.082377
G02 X129.949452 Y147.616280 Z5.000000 I-0.062090 J0.047716
G01 X129.929145 Y147.640735 Z5.000000
G02 X129.992774 Y147.760854 Z5.000000 I0.297188 J-0.080514
G02 X130.086629 Y147.823876 Z5.000000 I0.160895 J-0.138213
G02 X130.263468 Y147.696159 Z5.000000 I0.042518 J-0.127415
G02 X130.085529 Y147.267554 Z5.000000 I-0.608455 J0.001366
G03 X130.046444 Y147.181206 Z5.000000 I0.095059 J-0.095047
G01 X130.077829 Y147.147720 Z5.000000
G03 X130.368475 Y147.285114 Z5.000000 I-0.000000 J0.376117
G03 X130.517214 Y147.682676 Z5.000000 I-0.506692 J0.416172
G02 X130.561161 Y147.805928 Z5.000000 I0.210676 J-0.005658
G01 X130.605294 Y147.796775 Z5.000000
G01 X130.649412 Y147.787461 Z5.000000
G03 X130.693414 Y147.909140 Z5.000000 I-0.162785 J0.127662
G02 X130.720355 Y148.319382 Z5.000000 I5.316432 J-0.143126
G02 X130.769264 Y148.641219 Z5.000000 I3.476769 J-0.363727
G02 X130.888627 Y148.660454 Z5.000000 I0.063271 J-0.012657
G02 X131.003342 Y148.229496 Z5.000000 I-0.763090 J-0.433871
G03 X131.056207 Y147.799318 Z5.000000 I1.816583 J0.004905
G03 X131.129665 Y147.716711 Z5.000000 I0.115109 J0.028396
G01 X131.158956 Y147.653902 Z5.000000
G02 X131.054725 Y147.504701 Z5.000000 I-0.321441 J0.113549
G03 X131.009398 Y147.408548 Z5.000000 I0.079711 J-0.096336
G01 X131.054527 Y147.369692 Z5.000000
G03 X131.213815 Y147.454160 Z5.000000 I-0.041003 J0.269748
G03 X131.431797 Y147.777422 Z5.000000 I-0.937737 J0.867460
G02 X131.648936 Y148.113033 Z5.000000 I1.354114 J-0.638055
G02 X131.831444 Y148.244072 Z5.000000 I0.359079 J-0.307503
G03 X131.917882 Y148.310855 Z5.000000 I-0.075257 J0.186738
G01 X131.903544 Y148.341292 Z5.000000
G01 X131.860535 Y148.377116 Z5.000000
G02 X131.882464 Y148.430812 Z5.000000 I0.048698 J0.011438
G03 X131.944415 Y148.534731 Z5.000000 I-0.072070 J0.113390
G03 X131.907464 Y148.785318 Z5.000000 I-0.586895 J0.041476
G02 X131.862054 Y149.031430 Z5.000000 I0.649919 J0.247163
G01 X131.907084 Y149.045152 Z5.000000
G03 X132.010579 Y148.999035 Z5.000000 I0.088379 J0.059150
G03 X132.148350 Y149.079822 Z5.000000 I-0.030021 J0.209065
G03 X132.246072 Y149.270615 Z5.000000 I-0.478297 J0.365401
G03 X132.241870 Y149.388389 Z5.000000 I-0.174029 J0.052753
G02 X132.244290 Y149.499309 Z5.000000 I0.136518 J0.052508
G02 X132.353667 Y149.644733 Z5.000000 I0.359653 J-0.156660
G02 X132.509109 Y149.693761 Z5.000000 I0.137789 J-0.165928
G02 X132.671228 Y149.618623 Z5.000000 I-0.021206 J-0.258217
G02 X132.727365 Y149.454307 Z5.000000 I-0.139210 J-0.139307
G02 X132.616358 Y149.189324 Z5.000000 I-0.535381 J0.068540
G03 X132.441016 Y148.768236 Z5.000000 I0.666974 J-0.524780
G03 X132.549408 Y148.645683 Z5.000000 I0.108392 J-0.013343
G03 X132.802495 Y148.785573 Z5.000000 I0.000000 J0.298886
G03 X132.836407 Y149.102841 Z5.000000 I-0.307757 J0.193342
G02 X132.966884 Y149.464664 Z5.000000 I0.282795 J0.102458
G02 X133.366067 Y149.413607 Z5.000000 I0.166578 J-0.283645
G01 X133.372136 Y149.373058 Z5.000000
G02 X133.218273 Y149.135298 Z5.000000 I-1.454227 J0.772417
G03 X133.076316 Y148.888099 Z5.000000 I0.816964 J-0.633511
G03 X133.073577 Y148.776101 Z5.000000 I0.148075 J-0.059654
G03 X133.238816 Y148.724519 Z5.000000 I0.101722 J0.035401
G03 X133.453445 Y149.053511 Z5.000000 I-0.327046 J0.447865
G02 X133.603166 Y149.122433 Z5.000000 I0.100938 J-0.022187
G02 X133.718278 Y148.911712 Z5.000000 I-0.103533 J-0.193360
G02 X133.608390 Y148.525691 Z5.000000 I-1.017711 J0.081059
G02 X133.413399 Y148.318937 Z5.000000 I-0.455729 J0.234476
G02 X133.143983 Y148.221332 Z5.000000 I-0.393905 J0.666652
G02 X132.997783 Y148.251147 Z5.000000 I-0.033810 J0.207567
G03 X132.844082 Y148.314231 Z5.000000 I-0.256623 J-0.406468
G03 X132.570577 Y148.344657 Z5.000000 I-0.281124 J-1.282554
G03 X132.364424 Y148.283283 Z5.000000 I-0.001940 J-0.370399
G03 X132.320924 Y148.179688 Z5.000000 I0.055728 J-0.084331
G03 X132.480095 Y148.003108 Z5.000000 I0.226108 J0.043786
G03 X132.602829 Y148.094098 Z5.000000 I0.027638 J0.090990
G02 X132.641482 Y148.188721 Z5.000000 I0.135145 J0.000000
G01 X132.702946 Y148.196192 Z5.000000
G02 X132.753913 Y147.943642 Z5.000000 I-0.092804 J-0.150146
G02 X132.374610 Y147.735434 Z5.000000 I-0.405235 J0.288636
G03 X132.318635 Y147.707046 Z5.000000 I0.003776 J-0.076824
G01 X132.328100 Y147.678194 Z5.000000
G03 X132.491629 Y147.686093 Z5.000000 I0.069227 J0.263518
G03 X132.765989 Y147.839561 Z5.000000 I-0.348871 J0.945660
G02 X133.162885 Y147.993798 Z5.000000 I0.451522 J-0.574114
G02 X133.536616 Y147.897331 Z5.000000 I0.044874 J-0.598333
G03 X133.762452 Y147.826379 Z5.000000 I0.238542 J0.364375
G03 X133.952040 Y147.885221 Z5.000000 I0.008933 J0.306063
G03 X134.040118 Y148.040741 Z5.000000 I-0.128254 J0.175337
G03 X133.986310 Y148.259200 Z5.000000 I-0.342857 J0.031408
G02 X133.885753 Y148.510287 Z5.000000 I0.589920 J0.381934
G02 X133.853798 Y148.958129 Z5.000000 I1.904907 J0.360983
G03 X133.767488 Y149.355944 Z5.000000 I-0.795283 J0.035726
G03 X133.534938 Y149.582253 Z5.000000 I-0.450100 J-0.229876
G03 X133.189911 Y149.721000 Z5.000000 I-1.275458 J-2.673368
G03 X133.045720 Y149.744234 Z5.000000 I-0.144191 J-0.435799
G02 X132.923283 Y149.783772 Z5.000000 I-0.000000 J0.209344
G02 X132.838906 Y149.893323 Z5.000000 I0.141514 J0.196265
G03 X132.748097 Y149.977633 Z5.000000 I-0.131294 J-0.050355
G03 X132.542518 Y149.982363 Z5.000000 I-0.111367 J-0.370433
G02 X132.482874 Y150.047220 Z5.000000 I-0.012192 J0.048642
G02 X132.627818 Y150.232114 Z5.000000 I0.337539 J-0.115348
G03 X132.815953 Y150.400819 Z5.000000 I-0.423250 J0.661253
G01 X132.796683 Y150.441621 Z5.000000
G03 X132.514830 Y150.329117 Z5.000000 I-0.004058 J-0.399145
G03 X132.151877 Y149.816491 Z5.000000 I1.188330 J-1.226173
G02 X131.934582 Y149.536937 Z5.000000 I-0.707110 J0.325401
G02 X131.766315 Y149.504324 Z5.000000 I-0.114766 J0.141744
G02 X131.560301 Y149.633696 Z5.000000 I0.137407 J0.447526
G02 X131.550221 Y149.737603 Z5.000000 I0.063228 J0.058576
G02 X131.635180 Y149.809727 Z5.000000 I0.153403 J-0.094601
G02 X131.809853 Y149.844185 Z5.000000 I0.174673 J-0.425492
G03 X131.965907 Y149.882035 Z5.000000 I0.000000 J0.340629
G03 X132.003684 Y149.944005 Z5.000000 I-0.031940 J0.061970
G03 X131.870698 Y150.052725 Z5.000000 I-0.110934 J0.000000
G03 X131.438877 Y149.829512 Z5.000000 I0.176695 J-0.871130
G02 X131.207746 Y149.709950 Z5.000000 I-0.326099 J0.347211
G02 X131.048214 Y149.749992 Z5.000000 I-0.037961 J0.186578
G02 X130.949675 Y149.908780 Z5.000000 I0.188164 J0.226738
G02 X130.938800 Y150.212147 Z5.000000 I0.755024 J0.178945
G03 X130.856433 Y150.452940 Z5.000000 I-0.266678 J0.043264
G03 X130.715709 Y150.420257 Z5.000000 I-0.059378 J-0.063637
G00 Z9.000000

(Change tool to Default tool)

G00 Z9.000000
G00 X136.612993 Y150.512087

G01 Z5.000000 F100.0(Penetrate)
G03 X136.555420 Y150.352516 Z5.000000 I0.192054 J-0.159465 F1200.000000
G03 X136.613194 Y149.913423 Z5.000000 I1.702972 J0.000725
G02 X136.669773 Y149.462288 Z5.000000 I-1.610796 J-0.431132
G02 X136.603194 Y149.061008 Z5.000000 I-1.339425 J0.016068
G03 X136.565134 Y148.677927 Z5.000000 I0.838397 J-0.276728
G03 X136.684474 Y148.390445 Z5.000000 I0.573602 J0.069603
G02 X136.868497 Y148.109469 Z5.000000 I-1.521528 J-1.197264
G02 X136.897576 Y147.993899 Z5.000000 I-0.215119 J-0.115570
G03 X136.933149 Y147.892685 Z5.000000 I0.161777 J-0.000000
G03 X137.043074 Y147.812451 Z5.000000 I0.203175 J0.162943
G01 X137.102308 Y147.843309 Z5.000000
G03 X137.092324 Y148.009876 Z5.000000 I-0.270644 J0.067361
G02 X137.032069 Y148.259624 Z5.000000 I0.951286 J0.361653
G02 X137.054054 Y148.357093 Z5.000000 I0.152337 J0.016853
G03 X137.059444 Y148.409302 Z5.000000 I-0.051148 J0.031663
G01 X137.029824 Y148.423663 Z5.000000
G02 X136.949939 Y148.452103 Z5.000000 I-0.021750 J0.065321
G02 X136.897610 Y148.632275 Z5.000000 I0.284007 J0.180172
G02 X136.921842 Y148.709663 Z5.000000 I0.135691 J0.000000
G02 X137.189801 Y149.053286 Z5.000000 I3.231857 J-2.243932
G03 X137.434265 Y149.391838 Z5.000000 I-1.706399 J1.489705
G03 X137.433564 Y149.466313 Z5.000000 I-0.062122 J0.036656
G01 X137.442620 Y149.512568 Z5.000000
G02 X137.540868 Y149.544553 Z5.000000 I0.098248 J-0.134901
G02 X137.655016 Y149.386825 Z5.000000 I0.000000 J-0.120169
G02 X137.322072 Y148.879381 Z5.000000 I-1.109652 J0.365118
G03 X137.031862 Y148.574507 Z5.000000 I1.697113 J-1.906043
G01 X137.047457 Y148.538357 Z5.000000
G02 X137.146753 Y148.527311 Z5.000000 I-0.088986 J-1.251729
G02 X137.323973 Y148.496967 Z5.000000 I-0.711090 J-4.685731
G03 X137.467129 Y148.531831 Z5.000000 I0.033331 J0.174480
G03 X137.651014 Y148.754309 Z5.000000 I-0.420996 J0.535197
G02 X137.852374 Y148.940636 Z5.000000 I0.358555 J-0.185518
G02 X137.926034 Y148.870560 Z5.000000 I0.021586 J-0.051062
G02 X137.846875 Y148.704350 Z5.000000 I-0.921139 J0.336747
G02 X137.678182 Y148.455842 Z5.000000 I-2.227902 J1.330839
G03 X137.732711 Y148.370314 Z5.000000 I0.042808 J-0.032854
G03 X138.000433 Y148.527562 Z5.000000 I-0.109815 J0.493494
G03 X138.278610 Y149.083162 Z5.000000 I-0.890506 J0.793297
G03 X138.146326 Y149.245060 Z5.000000 I-0.132284 J0.026905
G02 X138.060075 Y149.295424 Z5.000000 I-0.000000 J0.099037
G02 X137.954693 Y149.584383 Z5.000000 I0.820060 J0.462767
G03 X137.829116 Y149.865432 Z5.000000 I-0.649697 J-0.121716
G03 X137.646919 Y149.985027 Z5.000000 I-0.263027 J-0.202126
G02 X137.432647 Y150.084732 Z5.000000 I0.151936 J0.606614
G02 X137.302400 Y150.233781 Z5.000000 I0.257530 J0.356476
G02 X137.406559 Y150.455576 Z5.000000 I0.134715 J0.072090
G02 X137.803800 Y150.336164 Z5.000000 I0.087581 J-0.429094
G03 X137.959700 Y150.283827 Z5.000000 I0.130569 J0.130571
G03 X138.007919 Y150.364394 Z5.000000 I-0.008262 J0.059657
G03 X137.867561 Y150.505972 Z5.000000 I-0.225711 J-0.083402
G03 X137.330465 Y150.621439 Z5.000000 I-0.648369 J-1.709016
G03 X136.761463 Y150.595807 Z5.000000 I-0.164163 J-2.684192
G03 X136.613764 Y150.512214 Z5.000000 I0.035891 J-0.235696
G00 Z9.000000

(Change tool to Default tool)

G00 Z9.000000
G00 X94.456209 Y150.009716

G01 Z5.000000 F100.0(Penetrate)
G03 X93.976539 Y149.545185 Z5.000000 I1.854563 J-2.394920 F1200.000000
G03 X93.874519 Y149.306199 Z5.000000 I0.353081 J-0.291995
G03 X94.040833 Y148.926105 Z5.000000 I0.408751 J-0.047580
G03 X94.556073 Y148.809292 Z5.000000 I0.393095 J0.539149
G02 X94.906663 Y148.855951 Z5.000000 I0.627355 J-3.373414
G02 X95.155238 Y148.857762 Z5.000000 I0.136593 J-1.687928
G03 X95.646176 Y149.033616 Z5.000000 I0.043399 J0.652053
G03 X95.854266 Y149.514748 Z5.000000 I-0.452175 J0.481132
G03 X95.645084 Y150.235585 Z5.000000 I-1.346587 J0.000000
G03 X95.268582 Y150.438960 Z5.000000 I-0.369762 J-0.234339
G03 X95.025855 Y150.376961 Z5.000000 I0.007367 J-0.534983
G03 X94.456209 Y150.009760 Z5.000000 I1.840095 J-3.480026
G00 Z9.000000

(Change tool to Default tool)

G00 Z9.000000
G00 X105.859620 Y149.933250

G01 Z5.000000 F100.0(Penetrate)
G03 X105.430894 Y149.482642 Z5.000000 I1.220884 J-1.590854 F1200.000000
G03 X105.360313 Y149.210855 Z5.000000 I0.336149 J-0.232354
G01 X105.391033 Y148.895198 Z5.000000
G01 X106.179337 Y148.919848 Z5.000000
G03 X106.950816 Y148.988987 Z5.000000 I-0.209125 J6.672249
G03 X107.103051 Y149.056958 Z5.000000 I-0.045498 J0.306371
G03 X107.294001 Y149.473676 Z5.000000 I-0.337411 J0.406718
G03 X107.083021 Y150.121173 Z5.000000 I-1.166847 J-0.022084
G03 X106.691605 Y150.288388 Z5.000000 I-0.330182 J-0.231168
G03 X105.859729 Y149.933235 Z5.000000 I0.276648 J-1.799824
G00 Z9.000000

(Change tool to Default tool)

G00 Z9.000000
G00 X113.879241 Y150.243305

G01 Z5.000000 F100.0(Penetrate)
G03 X113.959061 Y150.176024 Z5.000000 I0.142751 J0.088367 F1200.000000
G03 X114.126297 Y150.143495 Z5.000000 I0.167236 J0.413624
G02 X114.508767 Y149.953269 Z5.000000 I-0.000000 J-0.479612
G02 X115.185622 Y148.743547 Z5.000000 I-4.029305 J-3.048664
G03 X115.992559 Y146.946322 Z5.000000 I18.521031 J7.236007
G03 X117.467339 Y144.269181 Z5.000000 I42.625896 J21.736907
G03 X117.757348 Y143.943067 Z5.000000 I0.986630 J0.585391
G01 X117.826540 Y143.994667 Z5.000000
G02 X117.762996 Y144.333358 Z5.000000 I0.909953 J0.346030
G01 X117.823840 Y144.351568 Z5.000000
G03 X117.891561 Y144.302749 Z5.000000 I0.096257 J0.062145
G01 X117.922250 Y144.326248 Z5.000000
G03 X117.854055 Y144.626413 Z5.000000 I-0.659274 J0.008048
G03 X116.848942 Y146.498520 Z5.000000 I-28.253736 J-13.963243
G02 X116.740367 Y146.702124 Z5.000000 I2.706326 J1.573950
G02 X116.192554 Y147.846641 Z5.000000 I86.009404 J41.870965
G03 X115.621908 Y148.974957 Z5.000000 I-20.017274 J-9.415281
G03 X115.439905 Y149.235006 Z5.000000 I-1.228389 J-0.666009
G02 X115.277967 Y149.494094 Z5.000000 I0.692737 J0.613134
G02 X115.227500 Y149.747791 Z5.000000 I0.612431 J0.253697
G03 X115.164492 Y149.986595 Z5.000000 I-0.484045 J0.000000
G03 X114.981344 Y150.181886 Z5.000000 I-0.495157 J-0.280843
G03 X114.029133 Y150.495194 Z5.000000 I-1.059993 J-1.617909
G03 X113.879380 Y150.243336 Z5.000000 I-0.009207 J-0.164975
G00 Z9.000000

(Change tool to Default tool)

G00 Z9.000000
G00 X95.526801 Y148.224746

G01 Z5.000000 F100.0(Penetrate)
G03 X94.929956 Y147.862009 Z5.000000 I0.316409 J-1.193008 F1200.000000
G03 X94.356530 Y146.937643 Z5.000000 I2.216294 J-2.014911
G03 X94.280353 Y145.366538 Z5.000000 I2.299945 J-0.898915
G03 X95.225618 Y143.865523 Z5.000000 I3.021848 J0.854863
G03 X95.846391 Y143.466440 Z5.000000 I1.619857 J1.837338
G03 X96.370723 Y143.353934 Z5.000000 I0.527691 J1.181221
G03 X96.908655 Y143.438342 Z5.000000 I0.003922 J1.731334
G03 X97.369336 Y143.677784 Z5.000000 I-0.485207 J1.496416
G03 X97.985276 Y144.368439 Z5.000000 I-1.419908 J1.886283
G03 X98.319511 Y145.295829 Z5.000000 I-2.309227 J1.356180
G03 X98.241299 Y146.360371 Z5.000000 I-2.269868 J0.368377
G03 X97.616988 Y147.507351 Z5.000000 I-3.279717 J-1.041780
G03 X96.815123 Y148.170235 Z5.000000 I-2.118914 J-1.746733
G03 X96.103897 Y148.334293 Z5.000000 I-0.648009 J-1.185569
G03 X95.906356 Y148.311203 Z5.000000 I0.061829 J-1.385517
G03 X95.526801 Y148.224767 Z5.000000 I1.017292 J-5.343664
G00 Z9.000000

(Change tool to Default tool)

G00 Z9.000000
G00 X106.804686 Y148.083266

G01 Z5.000000 F100.0(Penetrate)
G03 X105.716230 Y147.460637 Z5.000000 I0.838152 J-2.727939 F1200.000000
G03 X105.440799 Y146.835232 Z5.000000 I0.572320 J-0.625405
G03 X105.610224 Y146.549287 Z5.000000 I0.326013 J-0.000000
G03 X106.013900 Y146.521465 Z5.000000 I0.231995 J0.423648
G03 X106.102771 Y146.600209 Z5.000000 I-0.060226 J0.157493
G03 X106.240583 Y146.950867 Z5.000000 I-1.497457 J0.790925
G02 X106.969520 Y147.681350 Z5.000000 I1.000428 J-0.269372
G02 X108.453500 Y147.551731 Z5.000000 I0.565683 J-2.083310
G02 X108.896369 Y147.306381 Z5.000000 I-1.628323 J-3.461570
G02 X109.091612 Y147.140706 Z5.000000 I-0.528587 J-0.820809
G03 X109.287331 Y146.994527 Z5.000000 I0.469642 J0.424690
G03 X109.494149 Y146.947476 Z5.000000 I0.206818 J0.431019
G02 X110.115200 Y146.691957 Z5.000000 I0.000000 J-0.882506
G02 X110.045183 Y146.401633 Z5.000000 I-0.122813 J-0.123986
G03 X109.827019 Y146.192947 Z5.000000 I0.103728 J-0.326818
G03 X109.805716 Y145.749145 Z5.000000 I0.697236 J-0.255880
G03 X109.943013 Y145.585524 Z5.000000 I0.241476 J0.063212
G03 X110.034400 Y145.644117 Z5.000000 I0.026910 J0.058593
G02 X110.060603 Y145.728664 Z5.000000 I0.149502 J-0.000000
G02 X110.284052 Y146.008308 Z5.000000 I2.021309 J-1.386028
G03 X110.505428 Y146.289191 Z5.000000 I-1.637908 J1.518583
G03 X110.536697 Y146.387883 Z5.000000 I-0.155653 J0.103616
G01 X110.564149 Y146.401998 Z5.000000
G02 X110.647689 Y146.312483 Z5.000000 I-0.154912 J-0.228312
G02 X110.698477 Y146.124985 Z5.000000 I-0.324317 J-0.188476
G02 X110.648789 Y145.913038 Z5.000000 I-0.471636 J-0.001230
G03 X110.562251 Y145.693184 Z5.000000 I1.204365 J-0.601015
G03 X110.512981 Y145.452876 Z5.000000 I1.387487 J-0.409679
G02 X110.421299 Y145.244801 Z5.000000 I-0.385195 J0.045489
G02 X110.047230 Y144.913831 Z5.000000 I-1.415094 J1.222493
G01 X109.610640 Y144.621140 Z5.000000
G01 X109.670190 Y144.117842 Z5.000000
G02 X109.644007 Y143.637946 Z5.000000 I-1.391122 J-0.164764
G02 X109.477561 Y143.283804 Z5.000000 I-0.904079 J0.208730
G03 X109.284043 Y142.982152 Z5.000000 I1.762176 J-1.343385
G01 X109.301507 Y142.953063 Z5.000000
G02 X109.327341 Y142.830355 Z5.000000 I0.000000 J-0.064073
G02 X108.303997 Y142.513477 Z5.000000 I-1.886786 J4.282426
G03 X107.916762 Y142.230909 Z5.000000 I0.102658 J-0.547305
G03 X107.756260 Y141.499889 Z5.000000 I1.194149 J-0.645315
G03 X107.868645 Y141.080787 Z5.000000 I1.096680 J0.069463
G03 X108.017694 Y140.973124 Z5.000000 I0.176798 J0.087755
G03 X108.237220 Y140.977556 Z5.000000 I0.096072 J0.680364
G03 X108.367209 Y141.038204 Z5.000000 I-0.050912 J0.278749
G02 X108.497684 Y141.114339 Z5.000000 I0.303030 J-0.369445
G02 X108.916243 Y141.250906 Z5.000000 I1.470484 J-3.797136
G03 X109.494886 Y141.649066 Z5.000000 I-0.271027 J1.013430
G03 X109.665598 Y142.285761 Z5.000000 I-0.748310 J0.541872
G02 X109.703340 Y142.806019 Z5.000000 I1.488186 J0.153537
G02 X109.915949 Y143.275582 Z5.000000 I1.414950 J-0.357747
G03 X110.193869 Y143.734290 Z5.000000 I-3.818770 J2.627245
G03 X110.286333 Y143.975306 Z5.000000 I-0.948856 J0.502267
G02 X110.388956 Y144.206769 Z5.000000 I0.720759 J-0.181080
G02 X110.643236 Y144.510164 Z5.000000 I1.512772 J-1.009621
G03 X111.131084 Y145.504049 Z5.000000 I-1.115495 J1.164212
G03 X110.868223 Y146.627716 Z5.000000 I-1.742042 J0.185061
G03 X110.388586 Y147.087211 Z5.000000 I-1.173477 J-0.744839
G03 X109.793803 Y147.246653 Z5.000000 I-0.596151 J-1.034771
G02 X109.524327 Y147.309551 Z5.000000 I0.000998 J0.612988
G02 X108.961959 Y147.655783 Z5.000000 I1.537873 J3.127723
G03 X107.884194 Y148.138529 Z5.000000 I-1.590868 J-2.107257
G03 X106.804566 Y148.083188 Z5.000000 I-0.429978 J-2.170411
G00 Z9.000000

(Change tool to Default tool)

G00 Z9.000000
G00 X113.030189 Y148.024298

G01 Z5.000000 F100.0(Penetrate)
G03 X113.062846 Y147.874147 Z5.000000 I0.361509 J-0.000000 F1200.000000
G03 X113.392185 Y147.231706 Z5.000000 I7.237934 J3.304793
G02 X114.430944 Y145.167771 Z5.000000 I-19.019144 J-10.865517
G02 X114.721934 Y144.201324 Z5.000000 I-3.826951 J-1.679299
G03 X114.873544 Y143.512404 Z5.000000 I7.684548 J1.329988
G03 X114.985066 Y143.219593 Z5.000000 I1.485451 J0.398117
G02 X115.090944 Y142.929134 Z5.000000 I-1.191271 J-0.598769
G02 X115.115482 Y142.670361 Z5.000000 I-0.913837 J-0.217203
G01 X115.078773 Y142.646067 Z5.000000
G02 X115.027412 Y142.703381 Z5.000000 I0.029151 J0.077793
G03 X114.967059 Y142.830473 Z5.000000 I-0.353233 J-0.089866
G01 X114.939302 Y142.822314 Z5.000000
G02 X114.894284 Y142.706300 Z5.000000 I-0.204327 J0.012546
G01 X114.838385 Y142.696787 Z5.000000
G03 X114.685443 Y142.634061 Z5.000000 I-0.053676 J-0.086943
G03 X114.689893 Y142.088639 Z5.000000 I1.081732 J-0.263903
G03 X114.783781 Y141.909983 Z5.000000 I0.432709 J0.113401
G03 X114.977893 Y141.754504 Z5.000000 I0.514657 J0.443625
G03 X116.011952 Y141.669820 Z5.000000 I0.614497 J1.147818
G03 X116.425476 Y142.247417 Z5.000000 I-0.196622 J0.577597
G03 X116.303294 Y142.998642 Z5.000000 I-2.370504 J-0.000000
G03 X115.972308 Y143.603828 Z5.000000 I-1.847391 J-0.617264
G03 X115.897030 Y143.621231 Z5.000000 I-0.048732 J-0.039279
G03 X115.862072 Y143.552198 Z5.000000 I0.026625 J-0.056850
G02 X115.904770 Y143.301494 Z5.000000 I-4.819483 J-0.949801
G02 X115.978522 Y142.741630 Z5.000000 I-23.633911 J-3.398143
G02 X115.927577 Y142.262033 Z5.000000 I-1.072048 J-0.128628
G02 X115.761323 Y142.109309 Z5.000000 I-0.224001 J0.076993
G03 X115.477606 Y142.035416 Z5.000000 I4.004885 J-15.958657
G03 X115.435179 Y142.021139 Z5.000000 I0.095837 J-0.354974
G01 X115.399969 Y142.042893 Z5.000000
G02 X115.288382 Y143.828722 Z5.000000 I47.853942 J3.886532
G03 X115.009466 Y145.263624 Z5.000000 I-4.945158 J-0.216681
G03 X114.272899 Y146.697825 Z5.000000 I-5.677133 J-2.009380
G03 X113.157776 Y148.074686 Z5.000000 I-10.098933 J-7.039147
G03 X113.030230 Y148.024276 Z5.000000 I-0.053811 J-0.050410
G00 Z9.000000

(Change tool to Default tool)

G00 Z9.000000
G00 X96.714958 Y147.740432

G01 Z5.000000 F100.0(Penetrate)
G02 X97.853832 Y146.697885 Z5.000000 I-1.175041 J-2.426933 F1200.000000
G02 X98.108016 Y145.411877 Z5.000000 I-1.667668 J-0.997744
G02 X97.498204 Y144.172765 Z5.000000 I-2.249025 J0.337215
G02 X96.511941 Y143.752190 Z5.000000 I-0.987927 J0.950026
G02 X95.967188 Y143.878733 Z5.000000 I-0.001808 J1.228035
G02 X95.117084 Y144.439736 Z5.000000 I1.800910 J3.653568
G02 X94.726496 Y144.999247 Z5.000000 I0.888218 J1.036142
G02 X94.555863 Y145.945632 Z5.000000 I2.539160 J0.946385
G02 X94.836535 Y147.020915 Z5.000000 I2.200094 J-0.000000
G02 X95.546582 Y147.713968 Z5.000000 I1.529707 J-0.856960
G02 X96.133878 Y147.866749 Z5.000000 I0.617264 J-1.167606
G02 X96.714958 Y147.740458 Z5.000000 I0.028770 J-1.267584
G00 Z9.000000

(Change tool to Default tool)

G00 Z9.000000
G00 X119.334935 Y147.829278

G01 Z5.000000 F100.0(Penetrate)
G03 X119.351419 Y147.668549 Z5.000000 I0.453834 J-0.034667 F1200.000000
G03 X119.465356 Y147.379902 Z5.000000 I1.566474 J0.451522
G02 X119.944998 Y146.399345 Z5.000000 I-30.408369 J-15.481932
G02 X120.770135 Y144.600676 Z5.000000 I-101.417569 J-47.613753
G02 X120.899033 Y144.298927 Z5.000000 I-8.483382 J-3.802256
G02 X121.024281 Y143.975245 Z5.000000 I-9.538035 J-3.876785
G03 X121.366487 Y143.653320 Z5.000000 I0.493126 J0.181348
G03 X121.924329 Y143.705322 Z5.000000 I0.214626 J0.715712
G02 X122.264704 Y143.833778 Z5.000000 I0.719763 J-1.392007
G02 X122.958685 Y143.963462 Z5.000000 I1.430221 J-5.731861
G03 X123.659462 Y144.078410 Z5.000000 I-1.173395 J9.347188
G03 X124.114672 Y144.198133 Z5.000000 I-0.823294 J4.055579
G02 X124.570235 Y144.316532 Z5.000000 I1.207665 J-3.711090
G02 X125.362936 Y144.443395 Z5.000000 I2.195783 J-11.180297
G03 X126.157575 Y144.566593 Z5.000000 I-1.626403 J13.114763
G03 X127.310220 Y144.806191 Z5.000000 I-5.208124 J27.947343
G02 X128.459120 Y145.067631 Z5.000000 I64.020355 J-278.682991
G02 X128.858061 Y145.155203 Z5.000000 I8.015927 J-35.564598
G03 X129.866928 Y145.377538 Z5.000000 I-16.644809 J77.927577
G03 X131.704096 Y145.801598 Z5.000000 I-60.470375 J266.169226
G03 X132.251754 Y145.936774 Z5.000000 I-5.692177 J24.238451
G03 X133.251939 Y146.202343 Z5.000000 I-20.871088 J80.620976
G02 X134.252884 Y146.464207 Z5.000000 I13.768104 J-50.583034
G02 X134.649991 Y146.553355 Z5.000000 I1.968273 J-7.838599
G03 X135.047285 Y146.641936 Z5.000000 I-1.710476 J8.606876
G03 X136.048041 Y146.899371 Z5.000000 I-13.470070 J54.437629
G02 X137.047783 Y147.161474 Z5.000000 I30.081073 J-112.700861
G02 X137.446092 Y147.259172 Z5.000000 I4.470339 J-17.364497
G03 X139.214994 Y147.752588 Z5.000000 I-4.887733 J20.940044
G03 X139.293517 Y147.860732 Z5.000000 I-0.035207 J0.108144
G03 X139.208627 Y147.935362 Z5.000000 I-0.075250 J0.000000
G03 X138.794216 Y147.796242 Z5.000000 I0.144206 J-1.116347
G02 X138.535629 Y147.686361 Z5.000000 I-0.596139 J1.043703
G02 X138.294912 Y147.650342 Z5.000000 I-0.251831 J0.860633
G03 X138.048571 Y147.623615 Z5.000000 I0.017126 J-1.306449
G03 X137.346233 Y147.455115 Z5.000000 I2.246596 J-10.912222
G02 X136.644715 Y147.273418 Z5.000000 I-6.675600 J24.328828
G02 X135.898250 Y147.102410 Z5.000000 I-6.537532 J26.822257
G03 X135.151073 Y146.933747 Z5.000000 I7.782706 J-36.216662
G03 X133.501591 Y146.535298 Z5.000000 I41.858940 J-176.899392
G02 X131.422619 Y146.051083 Z5.000000 I-19.724325 J79.981020
G02 X130.106323 Y145.790732 Z5.000000 I-6.975087 J31.807357
G03 X129.260613 Y145.626276 Z5.000000 I4.230121 J-24.010064
G03 X128.258896 Y145.397688 Z5.000000 I7.314732 J-34.363679
G02 X126.140105 Y145.073208 Z5.000000 I-2.917901 J11.973427
G02 X123.565439 Y145.092710 Z5.000000 I-1.153000 J17.744105
G01 X122.966276 Y145.140780 Z5.000000
G01 X123.607478 Y144.995083 Z5.000000
G02 X124.241859 Y144.836969 Z5.000000 I-3.484692 J-15.332906
G02 X124.288033 Y144.810142 Z5.000000 I-0.027077 J-0.099754
G01 X124.282398 Y144.782006 Z5.000000
G02 X123.796615 Y144.608022 Z5.000000 I-2.125726 J5.170101
G03 X123.265923 Y144.444943 Z5.000000 I300.992681 J-980.443272
G03 X122.816481 Y144.306546 Z5.000000 I221.998812 J-721.731380
G02 X121.482946 Y144.171724 Z5.000000 I-1.001960 J3.248006
G02 X121.218712 Y144.463124 Z5.000000 I0.028562 J0.291400
G02 X121.281210 Y144.588216 Z5.000000 I0.156438 J0.000000
G02 X121.468363 Y144.650665 Z5.000000 I0.187153 J-0.249216
G03 X121.532687 Y144.813408 Z5.000000 I0.000000 J0.094084
G03 X120.994023 Y145.095043 Z5.000000 I-0.776068 J-0.828383
G02 X120.765980 Y145.190983 Z5.000000 I0.138048 J0.647125
G02 X120.720505 Y145.276687 Z5.000000 I0.056325 J0.084803
G03 X120.291711 Y147.081825 Z5.000000 I-3.869607 J0.034307
G03 X119.553031 Y147.543933 Z5.000000 I-0.757897 J-0.390056
G02 X119.470065 Y147.587974 Z5.000000 I0.002254 J0.104414
G02 X119.391854 Y147.771315 Z5.000000 I0.384436 J0.272347
G03 X119.357153 Y147.837434 Z5.000000 I-0.127054 J-0.024515
G01 X119.334894 Y147.829375 Z5.000000
G00 Z9.000000

(Change tool to Default tool)

G00 Z9.000000
G00 X95.676784 Y147.072194

G01 Z5.000000 F100.0(Penetrate)
G03 X95.454543 Y146.743680 Z5.000000 I0.515862 J-0.588412 F1200.000000
G03 X95.184173 Y145.673443 Z5.000000 I5.721874 J-2.014768
G03 X95.302873 Y145.109423 Z5.000000 I0.799953 J-0.126147
G03 X95.743790 Y144.802656 Z5.000000 I0.591839 J0.380402
G02 X96.019905 Y144.704660 Z5.000000 I-0.254197 J-1.154225
G02 X96.158813 Y144.594247 Z5.000000 I-0.194352 J-0.387093
G03 X96.534885 Y144.399217 Z5.000000 I0.418846 J0.347549
G03 X97.008127 Y144.527197 Z5.000000 I0.057314 J0.727025
G03 X97.460313 Y145.255896 Z5.000000 I-0.616031 J0.886920
G03 X97.287640 Y146.414069 Z5.000000 I-1.991737 J0.295010
G03 X96.764448 Y147.044484 Z5.000000 I-1.497235 J-0.710270
G03 X96.141437 Y147.246909 Z5.000000 I-0.623011 J-0.857520
G03 X95.893073 Y147.201748 Z5.000000 I-0.000000 J-0.705523
G03 X95.676784 Y147.072154 Z5.000000 I0.247796 J-0.658852
G00 Z9.000000

(Change tool to Default tool)

G00 Z9.000000
G00 X137.495899 Y146.936148

G01 Z5.000000 F100.0(Penetrate)
G02 X136.445790 Y146.655619 Z5.000000 I-24.480781 J89.533709 F1200.000000
G02 X135.848198 Y146.506246 Z5.000000 I-7.583828 J29.070261
G03 X130.479012 Y145.119315 Z5.000000 I35.673087 J-149.186489
G03 X130.156131 Y144.925647 Z5.000000 I0.189240 J-0.681483
G01 X130.164678 Y144.891344 Z5.000000
G03 X130.255951 Y144.892347 Z5.000000 I0.044187 J0.132502
G02 X130.457747 Y144.956621 Z5.000000 I1.013669 J-2.833602
G02 X130.855115 Y145.060312 Z5.000000 I3.093690 J-11.042524
G03 X131.254200 Y145.158299 Z5.000000 I-13.205191 J54.644467
G03 X132.253167 Y145.408928 Z5.000000 I-89.381087 J358.374359
G02 X133.252129 Y145.659738 Z5.000000 I90.788929 J-359.492297
G02 X133.801011 Y145.795186 Z5.000000 I25.732793 J-103.098321
G03 X134.348671 Y145.935271 Z5.000000 I-6.135996 J25.129216
G03 X135.298923 Y146.195830 Z5.000000 I-20.278717 J75.818905
G02 X136.249605 Y146.454505 Z5.000000 I16.182686 J-57.598246
G02 X136.796834 Y146.590277 Z5.000000 I5.043361 J-19.156596
G03 X138.824694 Y147.110663 Z5.000000 I-10.613279 J45.569559
G03 X138.983884 Y147.203825 Z5.000000 I-0.098433 J0.350786
G01 X138.951716 Y147.265414 Z5.000000
G03 X137.495858 Y146.936200 Z5.000000 I2.947051 J-16.416192
G00 Z9.000000

(Change tool to Default tool)

G00 Z9.000000
G00 X107.113019 Y146.989880

G01 Z5.000000 F100.0(Penetrate)
G03 X106.962783 Y146.688332 Z5.000000 I0.139894 J-0.257897 F1200.000000
G03 X107.237850 Y146.159737 Z5.000000 I0.907939 J0.136602
G02 X107.558854 Y145.508768 Z5.000000 I-0.725227 J-0.762252
G02 X107.362674 Y144.985372 Z5.000000 I-0.620266 J-0.065975
G02 X107.061826 Y144.814028 Z5.000000 I-0.516362 J0.556845
G02 X106.688612 Y144.785849 Z5.000000 I-0.251946 J0.851288
G03 X106.293449 Y144.790119 Z5.000000 I-0.214423 J-1.556460
G03 X105.766098 Y144.677889 Z5.000000 I0.329004 J-2.841026
G02 X105.251508 Y144.549132 Z5.000000 I-1.378250 J4.415619
G02 X105.189602 Y144.568275 Z5.000000 I-0.012909 J0.067923
G02 X105.187835 Y144.750935 Z5.000000 I0.092160 J0.092230
G02 X105.719262 Y145.118406 Z5.000000 I1.174986 J-1.131234
G01 X106.189306 Y145.320225 Z5.000000
G01 X105.905600 Y145.397745 Z5.000000
G03 X105.122324 Y145.360941 Z5.000000 I-0.334981 J-1.224202
G03 X104.775780 Y144.971136 Z5.000000 I0.198300 J-0.525237
G02 X104.359341 Y144.168992 Z5.000000 I-1.879238 J0.466449
G02 X103.892507 Y143.952353 Z5.000000 I-0.474745 J0.411716
G03 X103.090367 Y143.599173 Z5.000000 I0.012946 J-1.116902
G03 X102.744807 Y142.727959 Z5.000000 I0.933000 J-0.874205
G02 X102.703099 Y142.494467 Z5.000000 I-0.684928 J0.001877
G02 X102.644268 Y142.453349 Z5.000000 I-0.058831 J0.021527
G02 X102.583026 Y142.491899 Z5.000000 I0.000000 J0.067920
G02 X102.544448 Y142.661554 Z5.000000 I0.353756 J0.169655
G01 X102.469955 Y142.700909 Z5.000000
G03 X101.645699 Y142.048410 Z5.000000 I4.183141 J-6.131133
G03 X100.777879 Y141.213413 Z5.000000 I15.832838 J-17.323689
G03 X100.746954 Y141.138075 Z5.000000 I0.076307 J-0.075338
G01 X100.786135 Y141.090840 Z5.000000
G03 X101.094768 Y141.072445 Z5.000000 I0.226736 J1.205827
G03 X101.780205 Y141.314233 Z5.000000 I-0.091119 J1.350768
G03 X102.888364 Y142.328494 Z5.000000 I-3.315991 J4.735481
G02 X103.176129 Y142.621203 Z5.000000 I2.034084 J-1.711923
G02 X103.261145 Y142.653040 Z5.000000 I0.085016 J-0.097592
G03 X103.349070 Y142.683636 Z5.000000 I-0.000000 J0.141634
G03 X104.026182 Y143.258797 Z5.000000 I-8.015225 J10.122127
G02 X105.329245 Y143.898620 Z5.000000 I1.754889 J-1.927185
G02 X106.364618 Y143.670423 Z5.000000 I0.241026 J-1.369365
G03 X106.919267 Y143.403791 Z5.000000 I1.103118 J1.584500
G03 X107.601595 Y143.303936 Z5.000000 I0.688573 J2.323996
G03 X108.287963 Y143.372379 Z5.000000 I0.008434 J3.391187
G03 X108.525309 Y143.492368 Z5.000000 I-0.100827 J0.494179
G03 X108.614145 Y143.733476 Z5.000000 I-0.185558 J0.205288
G03 X108.486139 Y143.792256 Z5.000000 I-0.082440 J-0.010762
G02 X107.716487 Y143.626738 Z5.000000 I-0.599306 J0.914565
G02 X106.794799 Y144.058983 Z5.000000 I0.284872 J1.806235
G03 X106.444285 Y144.302100 Z5.000000 I-1.238043 J-1.410715
G03 X106.251056 Y144.350672 Z5.000000 I-0.193229 J-0.360065
G02 X106.078257 Y144.389417 Z5.000000 I0.000000 J0.404707
G02 X106.039554 Y144.450492 Z5.000000 I0.028838 J0.061075
G02 X106.074342 Y144.515494 Z5.000000 I0.078122 J0.000000
G02 X106.189341 Y144.550312 Z5.000000 I0.114999 J-0.172502
G03 X106.307259 Y144.582217 Z5.000000 I0.000000 J0.233860
G03 X106.339136 Y144.637742 Z5.000000 I-0.032420 J0.055525
G01 X106.378878 Y144.669412 Z5.000000
G02 X107.079202 Y144.468170 Z5.000000 I-1.487774 J-6.496664
G03 X107.822570 Y144.286916 Z5.000000 I1.321355 J3.804202
G03 X108.199245 Y144.305805 Z5.000000 I0.140298 J0.967410
G03 X108.777684 Y144.715428 Z5.000000 I-0.235565 J0.945874
G03 X109.035382 Y145.575028 Z5.000000 I-1.304833 J0.859600
G03 X108.363507 Y146.903648 Z5.000000 I-1.649598 J0.000000
G03 X107.113059 Y146.989658 Z5.000000 I-0.692952 J-0.941646
G00 Z9.000000

(Change tool to Default tool)

G00 Z9.000000
G00 X96.688142 Y146.402600

G01 Z5.000000 F100.0(Penetrate)
G02 X96.911831 Y146.138090 Z5.000000 I-0.973802 J-1.050355 F1200.000000
G02 X96.966459 Y145.978191 Z5.000000 I-0.283793 J-0.186237
G02 X96.968118 Y145.446439 Z5.000000 I-3.516519 J-0.276852
G02 X96.908029 Y145.178008 Z5.000000 I-0.930908 J0.067446
G02 X96.169711 Y144.855797 Z5.000000 I-0.527877 J0.202581
G02 X95.790687 Y145.626073 Z5.000000 I0.238991 J0.595988
G03 X95.831862 Y145.800160 Z5.000000 I-2.006018 J0.566380
G03 X95.905276 Y146.223046 Z5.000000 I-12.085192 J2.315821
G02 X96.041517 Y146.565448 Z5.000000 I0.818158 J-0.127238
G02 X96.197570 Y146.647455 Z5.000000 I0.156053 J-0.107474
G02 X96.404705 Y146.598629 Z5.000000 I0.000000 J-0.463774
G02 X96.688088 Y146.402600 Z5.000000 I-0.543074 J-1.087925
G00 Z9.000000

(Change tool to Default tool)

G00 Z9.000000
G00 X108.142227 Y146.544599

G01 Z5.000000 F100.0(Penetrate)
G02 X108.488678 Y146.191530 Z5.000000 I-0.390217 J-0.729415 F1200.000000
G02 X108.635637 Y145.578948 Z5.000000 I-1.195387 J-0.610694
G02 X108.464973 Y144.913446 Z5.000000 I-1.390124 J0.001855
G02 X108.093997 Y144.589227 Z5.000000 I-0.627092 J0.343180
G02 X107.955096 Y144.574673 Z5.000000 I-0.096576 J0.251597
G02 X107.750471 Y144.643157 Z5.000000 I0.103001 J0.647701
G02 X107.681941 Y144.773802 Z5.000000 I0.062035 J0.115837
G02 X107.792581 Y145.014943 Z5.000000 I0.422557 J-0.047924
G03 X107.956383 Y145.568629 Z5.000000 I-0.477295 J0.442276
G03 X107.556604 Y146.372853 Z5.000000 I-1.551028 J-0.269538
G01 X107.300406 Y146.647399 Z5.000000
G01 X107.625253 Y146.647399 Z5.000000
G02 X107.942180 Y146.616216 Z5.000000 I0.000000 J-1.626144
G02 X108.142134 Y146.544494 Z5.000000 I-0.140147 J-0.705299
G00 Z9.000000

(Change tool to Default tool)

G00 Z9.000000
G00 X147.057409 Y144.492446

G01 Z5.000000 F100.0(Penetrate)
G03 X146.992407 Y144.327353 Z5.000000 I0.158952 J-0.157927 F1200.000000
G01 X147.063609 Y144.289230 Z5.000000
G02 X147.676118 Y144.417837 Z5.000000 I0.483947 J-0.781978
G02 X148.806878 Y144.043171 Z5.000000 I-0.465870 J-3.299694
G03 X148.984243 Y143.999236 Z5.000000 I0.172291 J0.315556
G03 X149.174771 Y144.048271 Z5.000000 I-0.005894 J0.417570
G02 X149.374250 Y144.113493 Z5.000000 I0.283532 J-0.529511
G02 X149.796605 Y144.136251 Z5.000000 I0.342298 J-2.422000
G01 X150.227602 Y144.122111 Z5.000000
G01 X149.828157 Y144.050571 Z5.000000
G01 X149.829053 Y144.011885 Z5.000000
G03 X150.478948 Y143.964891 Z5.000000 I0.724443 J5.501285
G02 X151.528457 Y143.934457 Z5.000000 I-0.405736 J-32.103058
G02 X153.075335 Y143.847852 Z5.000000 I-3.316842 J-73.100954
G03 X154.621783 Y143.750890 Z5.000000 I13.476065 J202.548255
G03 X155.195381 Y143.723026 Z5.000000 I1.644221 J27.929944
G02 X155.730773 Y143.663861 Z5.000000 I-0.144024 J-3.755296
G01 X155.769578 Y143.617377 Z5.000000
G01 X155.807631 Y143.576863 Z5.000000
G03 X156.194284 Y143.588937 Z5.000000 I0.132041 J1.968585
G02 X156.367059 Y143.588521 Z5.000000 I0.084815 J-0.653721
G01 X156.369041 Y143.565417 Z5.000000
G01 X156.373422 Y143.524845 Z5.000000
G03 X157.317716 Y143.478557 Z5.000000 I1.020397 J11.161287
G02 X158.512440 Y143.432934 Z5.000000 I-0.116419 J-18.714526
G02 X159.165146 Y143.349433 Z5.000000 I-0.403738 J-5.748680
G03 X159.816090 Y143.241064 Z5.000000 I3.048070 J16.299730
G03 X160.443664 Y143.162397 Z5.000000 I2.244722 J15.364910
G02 X161.051920 Y143.060107 Z5.000000 I-0.515157 J-4.922927
G02 X161.142691 Y142.999422 Z5.000000 I-0.035141 J-0.150792
G03 X161.503370 Y142.742869 Z5.000000 I0.553596 J0.396473
G03 X161.913514 Y142.771644 Z5.000000 I0.166532 J0.563715
G02 X162.173252 Y142.827842 Z5.000000 I0.258814 J-0.567865
G02 X162.497505 Y142.770743 Z5.000000 I-0.001417 J-0.957281
G03 X163.127984 Y142.648995 Z5.000000 I0.702037 J1.942188
G03 X163.303377 Y142.742843 Z5.000000 I0.006865 J0.197992
G03 X163.244844 Y142.894474 Z5.000000 I-0.086755 J0.053624
G03 X162.017270 Y143.113129 Z5.000000 I-1.660178 J-5.765325
G02 X161.335529 Y143.197426 Z5.000000 I0.486071 J6.729902
G02 X161.168451 Y143.262221 Z5.000000 I0.079629 J0.453139
G01 X161.194342 Y143.345733 Z5.000000
G02 X162.485116 Y143.215521 Z5.000000 I-0.354449 J-9.976361
G03 X162.742097 Y143.208567 Z5.000000 I0.153404 J0.917169
G03 X162.809573 Y143.251011 Z5.000000 I-0.010209 J0.091087
G03 X162.743938 Y143.402220 Z5.000000 I-0.085418 J0.052772
G03 X161.019963 Y143.610706 Z5.000000 I-2.195957 J-10.926390
G02 X159.837739 Y143.689366 Z5.000000 I1.037711 J24.519888
G02 X159.721768 Y143.728335 Z5.000000 I0.023905 J0.263187
G03 X159.534198 Y143.791411 Z5.000000 I-0.225541 J-0.360266
G03 X157.267791 Y143.948430 Z5.000000 I-5.003316 J-55.782548
G02 X155.223097 Y144.073696 Z5.000000 I4.023009 J82.416780
G02 X154.521617 Y144.150751 Z5.000000 I0.724799 J9.829885
G03 X147.826215 Y144.791850 Z5.000000 I-9.789158 J-66.951656
G03 X147.057025 Y144.492275 Z5.000000 I-0.046580 J-1.017678
G00 Z9.000000

(Change tool to Default tool)

G00 Z9.000000
G00 X167.753179 Y143.962713

G01 Z5.000000 F100.0(Penetrate)
G01 X168.102685 Y143.900973 Z5.000000 F1200.000000
G01 X167.691667 Y143.776147 Z5.000000
G02 X167.276496 Y143.679954 Z5.000000 I-0.922737 J3.038514
G02 X166.942703 Y143.654821 Z5.000000 I-0.313738 J1.937628
G01 X166.604776 Y143.658121 Z5.000000
G01 X166.854430 Y143.800815 Z5.000000
G01 X166.817204 Y143.892588 Z5.000000
G03 X165.707522 Y143.506232 Z5.000000 I1.750235 J-6.813762
G02 X165.300597 Y143.395350 Z5.000000 I-0.563871 J1.267223
G02 X164.808782 Y143.403826 Z5.000000 I-0.213651 J1.876015
G03 X162.899835 Y143.567399 Z5.000000 I-2.259813 J-15.151968
G03 X162.864589 Y143.448486 Z5.000000 I-0.001472 J-0.064244
G03 X163.013793 Y143.383010 Z5.000000 I0.304934 J0.492132
G03 X163.407237 Y143.296803 Z5.000000 I0.956875 J3.426202
G02 X163.796619 Y143.200508 Z5.000000 I-0.383670 J-2.386840
G02 X164.047439 Y143.080699 Z5.000000 I-0.370845 J-1.098809
G03 X164.300395 Y142.977750 Z5.000000 I0.409522 J0.643991
G03 X164.771435 Y142.928913 Z5.000000 I0.471040 J2.247222
G02 X165.217654 Y142.889904 Z5.000000 I-0.000000 J-2.571605
G01 X165.256661 Y142.843423 Z5.000000
G01 X165.292590 Y142.817743 Z5.000000
G03 X165.708622 Y142.998209 Z5.000000 I-0.923175 J2.697981
G02 X166.173970 Y143.200499 Z5.000000 I1.518801 J-2.857466
G02 X166.732198 Y143.350519 Z5.000000 I1.363842 J-3.961282
G03 X167.329288 Y143.497705 Z5.000000 I-1.233050 J6.286836
G03 X168.102685 Y143.759149 Z5.000000 I-3.214129 J10.782581
G03 X168.231995 Y143.874966 Z5.000000 I-0.085471 J0.225525
G03 X168.202505 Y143.954577 Z5.000000 I-0.051369 J0.026239
G03 X167.998108 Y144.011115 Z5.000000 I-0.337806 J-0.823506
G03 X167.703205 Y144.030337 Z5.000000 I-0.259776 J-1.713644
G01 X167.689289 Y144.002169 Z5.000000
G03 X167.753125 Y143.962457 Z5.000000 I0.081608 J0.060019
G00 Z9.000000

(Change tool to Default tool)

G00 Z9.000000
G00 X129.606196 Y143.755926

G01 Z5.000000 F100.0(Penetrate)
G03 X129.699179 Y142.822948 Z5.000000 I4.727159 J-0.000000 F1200.000000
G03 X130.371228 Y139.956321 Z5.000000 I45.664189 J9.193368
G03 X131.003088 Y137.847424 Z5.000000 I36.377342 J9.750145
G03 X131.119786 Y137.699767 Z5.000000 I0.261562 J0.086777
G01 X131.147055 Y137.716232 Z5.000000
G03 X131.105566 Y137.905481 Z5.000000 I-0.658208 J-0.045127
G02 X130.655589 Y139.401545 Z5.000000 I10.266657 J3.903643
G02 X130.050246 Y142.602616 Z5.000000 I46.630039 J10.475817
G03 X129.874496 Y143.699592 Z5.000000 I-91.985774 J-14.174800
G03 X129.846628 Y143.825911 Z5.000000 I-1.220395 J-0.203002
G03 X129.714245 Y143.899845 Z5.000000 I-0.102613 J-0.028248
G03 X129.606261 Y143.755911 Z5.000000 I0.041934 J-0.143934
G00 Z9.000000

(Change tool to Default tool)

G00 Z9.000000
G00 X128.260341 Y143.731571

G01 Z5.000000 F100.0(Penetrate)
G03 X128.164626 Y142.730537 Z5.000000 I1.610324 J-0.659065 F1200.000000
G03 X129.297092 Y138.558280 Z5.000000 I31.554965 J6.325066
G02 X129.482603 Y138.007716 Z5.000000 I-38.063288 J-13.131846
G02 X129.691150 Y137.359955 Z5.000000 I-51.196120 J-16.840079
G03 X130.708834 Y134.746176 Z5.000000 I20.262496 J6.384264
G03 X131.378091 Y133.751880 Z5.000000 I3.514579 J1.643265
G02 X131.875007 Y133.215535 Z5.000000 I-705.883099 J-654.487836
G02 X132.463279 Y132.579712 Z5.000000 I-1045.250256 J-967.671287
G03 X135.490646 Y130.059168 Z5.000000 I11.144786 J10.307421
G03 X135.995661 Y130.344728 Z5.000000 I0.175985 J0.278110
G03 X135.963457 Y130.398854 Z5.000000 I-0.063555 J-0.001171
G03 X135.442129 Y130.658485 Z5.000000 I-2.675756 J-4.719586
G02 X134.907537 Y130.926776 Z5.000000 I2.106290 J4.863716
G02 X134.470186 Y131.217109 Z5.000000 I2.030398 J3.533118
G03 X134.037396 Y131.515945 Z5.000000 I-3.467376 J-4.558822
G03 X133.674894 Y131.713819 Z5.000000 I-1.863956 J-2.983755
G02 X133.330711 Y131.933053 Z5.000000 I0.695741 J1.472058
G02 X132.783937 Y132.453489 Z5.000000 I3.552056 J4.279256
G02 X131.202302 Y134.374055 Z5.000000 I17.231383 J15.802029
G02 X130.858318 Y135.063148 Z5.000000 I1.803248 J1.330553
G03 X130.768355 Y135.305807 Z5.000000 I-1.897514 J-0.565473
G03 X130.655304 Y135.517320 Z5.000000 I-1.555674 J-0.695522
G02 X130.098537 Y136.657316 Z5.000000 I5.049616 J3.172160
G02 X129.806486 Y137.859257 Z5.000000 I5.326388 J1.930674
G03 X129.693085 Y138.501957 Z5.000000 I-7.096095 J-0.920714
G03 X129.504607 Y139.207369 Z5.000000 I-8.729131 J-1.954438
G02 X128.639255 Y142.307305 Z5.000000 I51.748249 J16.116363
G02 X128.504198 Y143.251743 Z5.000000 I4.615909 J1.141960
G03 X128.474130 Y143.497049 Z5.000000 I-1.495527 J-0.058819
G03 X128.411628 Y143.701113 Z5.000000 I-1.130096 J-0.234528
G03 X128.329644 Y143.768780 Z5.000000 I-0.104283 J-0.042848
G03 X128.260340 Y143.731633 Z5.000000 I-0.012199 J-0.060462
G00 Z9.000000

(Change tool to Default tool)

G00 Z9.000000
G00 X129.109956 Y143.674483

G01 Z5.000000 F100.0(Penetrate)
G03 X129.126902 Y143.449750 Z5.000000 I1.304308 J-0.014651 F1200.000000
G03 X129.305985 Y142.476153 Z5.000000 I24.252502 J3.957713
G01 X129.658087 Y140.755249 Z5.000000
G03 X130.448582 Y137.815660 Z5.000000 I24.419167 J4.990563
G03 X131.530085 Y135.177725 Z5.000000 I20.717562 J6.953138
G03 X132.116480 Y134.186322 Z5.000000 I6.493774 J3.171816
G03 X132.845546 Y133.311117 Z5.000000 I5.778773 J4.072584
G03 X134.525958 Y131.834731 Z5.000000 I10.718732 J10.505477
